; G-Code generated by Simplify3D(R) Version 5.1.2
; Oct 26, 2023 at 10:10:21 AM
; Settings Summary
;   processName,Baseplate
;   autoConfigureMaterial,PLA
;   autoConfigureQuality,0.8 mm
;   autoConfigureExtruders,Left Extruder Only
;   targetModels,ASU3base,ASU3base(2),ASU3base(3),ASU3base(4),ASU3base(5),ASU3base(6)
;   profileName,AngelaSu Base
;   profileVersion,2023-10-19 14:43:47
;   app,S3D-Software 5.1.2
;   technology,fff
;   baseProfile,Builder Extreme 2000
;   extruder,Left Extruder
;   toolheadNumber,0
;   nozzleDiameter,0.80000
;   extrusionMultiplier,1.05000
;   extrusionWidthMode,automatic
;   extrusionWidth,0.96000
;   useRetraction,1
;   retractDistance,3.00000
;   extraRestartDistance,1.00000
;   retractVerticalLift,0.00000
;   retractSpeed,900.00000
;   useCoasting,1
;   coastingDistance,3.00000
;   useWiping,1
;   wipingDistance,1.00000
;   speedMaxFlowRate,900.00000
;   toolheadOffsetX,0.00000
;   toolheadOffsetY,0.00000
;   filamentDiameter,1.75000
;   filamentPricePerKilogram,30.00000
;   filamentDensity,1.25000
;   primaryExtruder,Left Extruder
;   layerHeight,0.30000
;   topSolidLayers,0
;   bottomSolidLayers,3
;   outlinePerimeters,1
;   useVaseMode,0
;   useAdaptiveLayerHeights,0
;   minAdaptiveLayerHeight,0.10000
;   maxAdaptiveLayerHeight,0.30000
;   adaptiveSmoothingLevel,5
;   horizontalOuterCompensation,0.00000
;   horizontalInnerCompensation,0.00000
;   firstLayerUnits,percentage
;   firstLayerHeightPercentage,100
;   firstLayerWidthPercentage,112
;   firstLayerSpeedPercentage,70
;   firstLayerHeightAbsolute,0.30000
;   firstLayerWidthAbsolute,0.40000
;   firstLayerSpeedAbsolute,900.00000
;   startPointStrategy,closest
;   alignStartPointsX,0.00000
;   alignStartPointsY,650.00000
;   restrictStartPoints,0
;   perimeterPrintingOrder,inside_out
;   islandPrintingOrder,closest
;   printInfillBeforePerimeters,0
;   useSkirt,1
;   skirtExtruder,Left Extruder
;   skirtLayers,1
;   skirtOffset,10.00000
;   skirtOutlines,1
;   useRaft,0
;   raftExtruder,Left Extruder
;   raftBaseLayers,2
;   raftTopLayers,3
;   raftOffset,3.00000
;   raftSeparationDistance,0.14000
;   raftSpeedUnits,percentage
;   raftSpeedPercentage,30
;   raftSpeedAbsolute,600.00000
;   usePrimePillar,0
;   primePillarExtruder,All Extruders
;   primePillarWidth,12.00000
;   primePillarLocation,north_west
;   primePillarSpeedPercentage,200
;   primePillarInfillPercentage,100
;   autoStopPrimePillar,1
;   primePillarLayersAfterAutoStop,0
;   useOozeShield,0
;   oozeShieldExtruder,All Extruders
;   oozeShieldOffset,2.00000
;   oozeShieldOutlines,1
;   oozeShieldSidewallShape,waterfall
;   oozeShieldSidewallAngle,30
;   oozeShieldSpeedPercentage,100
;   autoStopOozeShield,1
;   oozeShieldLayersAfterAutoStop,0
;   sparseInfillExtruder,Left Extruder
;   sparseInfillPattern,aligned
;   sparseInfillRotation,90
;   sparseInfillPercentage,3
;   sparseInfillExtrusionWidthPercentage,111
;   sparseInfillCombinedLayers,1
;   denseInfillLayers,10
;   denseInfillPercentage,15
;   infillOutlineOverlapPercentage,20
;   minInfillLength,10.00000
;   externalInfillPattern,rectilinear
;   externalInfillRotation,45
;   solidInfillThresholdArea,25.00000
;   solidInfillExtraExpansion,0.00000
;   useMonotonic,0
;   useDiaphragm,0
;   diaphragmSolidLayers,3
;   diaphragmSpacingLayers,20
;   topLayerExtraExpansion,1.00000
;   topLayerExtrusionModifier,100
;   overrideFanSpeedForTopLayer,0
;   topLayerFanSpeedPercentage,100
;   useIroning,0
;   ironingOutlineOffsetPercentage,50
;   ironingExtrusionWidthPercentage,25
;   ironingExtrusionModifier,15
;   ironingSpeedModifier,30
;   sparseSupportExtruder,Left Extruder
;   sparseSupportInfillPattern,rectilinear
;   sparseSupportInfillRotation,0
;   sparseSupportInfillPercentage,20
;   sparseSupportOutlines,0
;   sparseSupportCombinedLayers,1
;   upperDenseSupportLayers,0
;   lowerDenseSupportLayers,0
;   denseSupportExtruder,Left Extruder
;   denseSupportInfillPercentage,25
;   denseSupportExtraExpansion,0.00000
;   baseSupportLayers,0
;   supportInflationDistance,2.00000
;   supportHorizontalPartOffset,0.60000
;   supportUpperSeparationLayers,1
;   supportLowerSeparationLayers,1
;   temperatureController,Left Extruder Temperature
;   enableTemperatureController,1
;   temperatureNumber,0
;   temperatureType,extruder
;   stabilizeAtStartup,1
;   temperatureSetpoints,1|220
;   useIdleCooldown,0
;   cooldownTemperature,150
;   cooldownRequiredIdleTime,180
;   cooldownReheatTime,60
;   temperatureController,Right Extruder Temperature
;   enableTemperatureController,1
;   temperatureNumber,1
;   temperatureType,extruder
;   stabilizeAtStartup,1
;   temperatureSetpoints,1|220
;   useIdleCooldown,0
;   cooldownTemperature,150
;   cooldownRequiredIdleTime,180
;   cooldownReheatTime,60
;   temperatureController,Heated Bed
;   enableTemperatureController,1
;   temperatureNumber,2
;   temperatureType,platform
;   stabilizeAtStartup,1
;   temperatureSetpoints,1|60
;   useIdleCooldown,0
;   cooldownTemperature,150
;   cooldownRequiredIdleTime,180
;   cooldownReheatTime,60
;   fan,Cooling Fan
;   fanNumber,0
;   fanType,extruder
;   blipFanToFullPower,0
;   fanSetpoints,1|0,2|100
;   increaseFanForQuickLayers,0
;   fanMaxQuickLayerTime,45.00000
;   fanMinQuickLayerTime,15.00000
;   maxQuickLayerFanSpeedPercentage,100
;   defaultPrintSpeed,5200.00000
;   outerPerimeterSpeedPercentage,50
;   innerPerimeterSpeedPercentage,100
;   topLayerSpeedPercentage,50
;   solidInfillSpeedPercentage,70
;   sparseSupportSpeedPercentage,90
;   denseSupportSpeedPercentage,70
;   travelSpeedXY,9000.00000
;   travelSpeedZ,1998.00000
;   reduceSpeedForQuickLayers,1
;   speedMaxQuickLayerTime,15.00000
;   minQuickLayerSpeedPercentage,20
;   reduceSpeedForShortPerimeters,1
;   speedMaxShortPerimeterLength,80.00000
;   minShortPerimeterSpeedPercentage,50
;   reduceSpeedForMaxFlowRate,0
;   accelXY,1000.00000
;   accelZ,150.00000
;   accelE,3000.00000
;   jerkXY,600.00000
;   jerkZ,24.00000
;   jerkE,300.00000
;   exportFileFormat,gcode
;   useStickyCommands,1
;   use5D,1
;   relativeExtrusionDistances,0
;   allowExtruderAxisZeroing,1
;   independentExtruderAxes,0
;   includeM10123,0
;   includeThumbnailImages,0
;   thumbnailImageEncoding,standard
;   thumbnailImageSizes,300|300
;   x3gMachineProfile,r2
;   overrideStepsPerMillimeter,0
;   stepsPerMillimeterX,88.57319
;   stepsPerMillimeterY,88.57319
;   stepsPerMillimeterZ,400.00000
;   stepsPerMillimeterA,96.27520
;   stepsPerMillimeterB,96.27520
;   xyzFileFormatVersion,1
;   makerBotMachineProfile,replicator_5
;   makerBotModelExtruder,mk13
;   makerBotSupportExtruder,mk14_s
;   makerBotModelMaterial,pla
;   makerBotSupportMaterial,pva
;   globalOffsetX,0.00000
;   globalOffsetY,0.00000
;   globalOffsetZ,0.00000
;   applyToolheadOffsets,0
;   buildVolumeShape,rectangular
;   buildVolumeX,700.00000
;   buildVolumeY,700.00000
;   buildVolumeZ,1820.00000
;   buildVolumeDiameter,200.00000
;   originOffsetX,0.00000
;   originOffsetY,0.00000
;   originOffsetZ,0.00000
;   homingDirectionX,min
;   homingDirectionY,min
;   homingDirectionZ,min
;   mirrorVisualX,0
;   mirrorVisualY,1
;   mirrorVisualZ,0
;   machineBackgroundModel,
;   startingScript,G28 ; home all axes|M204 S1500 ; default acceleration|M205 X15.00 ; maximum X Y jerk
;   preLayerChangeScript,
;   postLayerChangeScript,
;   preRetractionScript,
;   postRetractionScript,
;   preToolChangeScript,
;   postToolChangeScript,
;   processChangeScript,
;   endingScript,M104 T0 S0 ; left extruder heater off|M104 T1 S0 ; right extruder heater off|M140 S0 ; heated bed heater off (if you have it)|G28 X0 Y0 ; move X/Y to min endstops|M84 ; steppers off|M107 ; Fan off|G90 ; absolute positioning
;   postProcessingScript,
;   useBridging,1
;   bridgingThresholdArea,5.00000
;   bridgingInfillExtraExpansion,0.00000
;   bridgingExtrusionModifier,80
;   bridgingSpeedModifier,130
;   overrideFanSpeedForBridging,0
;   bridgingFanSpeedPercentage,50
;   useFixedBridgingAngle,0
;   fixedBridgingAngle,0
;   applyBridgingToPerimeters,0
;   bridgingPerimeterExtraOverlap,0.00000
;   minBridgingPerimeterLength,10.00000
;   useToolChangeRetraction,1
;   toolChangeRetractDistance,1.00000
;   toolChangeExtraRestartDistance,0.00000
;   toolChangeRetractSpeed,900.00000
;   toolChangePrimeOnFirstUse,0
;   toolChangeRetractAtEnd,0
;   externalThinWallType,perimeters_only
;   internalThinWallType,gap_fill
;   thinWallAllowedOverlapPercentage,15
;   singleExtrusionMinLength,1.00000
;   singleExtrusionMinWidthPercentage,50
;   singleExtrusionMaxWidthPercentage,200
;   singleExtrusionEndpointExtensionDistance,0.20000
;   onlyRetractWhenCrossingOutlines,1
;   retractBetweenLayers,1
;   retractOnTopLayers,0
;   useRetractionMinTravel,0
;   retractionMinTravel,3.00000
;   useRetractionMinExtrusion,0
;   retractionMinExtrusion,3.00000
;   onlyVerticalLiftOnTopLayers,0
;   retractWhileWiping,0
;   wipingMode,outer_perimeter
;   avoidCrossingOutlines,1
;   maxMovementDetourFactor,3.00000
;   openLoopSlicingBehavior,heal
;   openLoopThickenWidth,0.50000
;   slicingRegionRepairMode,positive
G90
M82
M106 S0 P0
M140 S60
M190 S60
M104 S220 T0
M104 S220 T1
M109 S220 T0
M109 S220 T1
G28 ; home all axes
M204 S1500 ; default acceleration
M205 X15.00 ; maximum X Y jerk
; process Baseplate
; layer 1, Z = 0.3000
T0
G92 E0.00000
G1 E-3.00000 F900
; feature skirt
; tool H0.3000 W1.075
G1 Z0.3000 F1998
G1 X29.359 Y230.417 F9000
G92 E0.00000
G1 E4.00000 F900
G92 E0.00000
G1 X670.858 Y230.424 E90.32960 F3640
G1 X672.502 Y230.685 E90.56391
G1 X674.593 Y231.367 E90.87372
G1 X675.975 Y232.054 E91.09092
G1 X677.298 Y232.973 E91.31783
G1 X678.136 Y233.698 E91.47386
G1 X679.616 Y235.275 E91.77840
G1 X680.475 Y236.501 E91.98914
G1 X681.356 Y238.238 E92.26336
G1 X681.927 Y240.398 E92.57807
G1 X682.065 Y243.309 E92.98839
G1 X681.973 Y244.569 E93.16630
G1 X676.987 Y270.157 E96.83710
G1 X677.299 Y270.374 E96.89063
G1 X678.136 Y271.098 E97.04653
G1 X679.616 Y272.675 E97.35102
G1 X680.475 Y273.901 E97.56179
G1 X681.356 Y275.638 E97.83602
G1 X681.927 Y277.798 E98.15073
G1 X682.065 Y280.709 E98.56105
G1 X681.973 Y281.969 E98.73897
G1 X676.987 Y307.557 E102.40976
G1 X677.298 Y307.774 E102.46323
G1 X678.136 Y308.498 E102.61919
G1 X679.616 Y310.075 E102.92369
G1 X680.475 Y311.301 E103.13445
G1 X681.356 Y313.038 E103.40868
G1 X681.927 Y315.198 E103.72338
G1 X682.065 Y318.109 E104.13371
G1 X681.973 Y319.369 E104.31162
G1 X677.124 Y344.253 E107.88134
G1 X678.136 Y345.098 E108.06700
G1 X679.614 Y346.673 E108.37116
G1 X680.471 Y347.894 E108.58123
G1 X681.354 Y349.630 E108.85555
G1 X681.928 Y351.797 E109.17110
G1 X682.064 Y354.710 E109.58178
G1 X681.973 Y355.970 E109.75959
G1 X676.987 Y381.557 E113.43034
G1 X677.298 Y381.774 E113.48379
G1 X678.136 Y382.498 E113.63968
G1 X679.614 Y384.073 E113.94384
G1 X680.471 Y385.294 E114.15391
G1 X681.354 Y387.030 E114.42823
G1 X681.928 Y389.197 E114.74378
G1 X682.064 Y392.110 E115.15446
G1 X681.973 Y393.370 E115.33227
G1 X676.987 Y418.957 E119.00301
G1 X677.298 Y419.174 E119.05646
G1 X678.136 Y419.897 E119.21235
G1 X679.614 Y421.473 E119.51651
G1 X680.471 Y422.694 E119.72658
G1 X681.354 Y424.430 E120.00090
G1 X681.928 Y426.597 E120.31644
G1 X682.064 Y429.510 E120.72713
G1 X681.973 Y430.770 E120.90494
G1 X676.247 Y460.153 E125.12032
G1 X675.699 Y461.675 E125.34798
G1 X674.879 Y463.181 E125.58947
G1 X674.552 Y463.705 E125.67653
G1 X673.118 Y465.730 E126.02581
G1 X670.846 Y467.565 E126.43718
G1 X668.690 Y468.486 E126.76731
G1 X668.007 Y468.724 E126.86902
G1 X666.416 Y469.159 E127.10127
G1 X665.021 Y469.346 E127.29945
G1 X35.540 Y469.345 E215.93680
G1 X33.591 Y469.218 E216.21178
G1 X32.240 Y468.940 E216.40601
G1 X30.631 Y468.382 E216.64582
G1 X29.022 Y467.487 E216.90502
G1 X27.235 Y466.009 E217.23162
G1 X25.898 Y464.708 E217.49426
G1 X24.500 Y462.399 E217.87435
G1 X23.817 Y460.108 E218.21103
G1 X23.695 Y459.611 E218.28316
G1 X18.125 Y431.037 E222.38231
G1 X18.036 Y430.329 E222.48275
G1 X17.938 Y428.621 E222.72373
G1 X18.171 Y426.734 E222.99145
G1 X19.057 Y423.897 E223.40988
G1 X19.799 Y422.402 E223.64495
G1 X20.929 Y420.816 E223.91913
G1 X22.187 Y419.562 E224.16926
G1 X23.058 Y418.946 E224.31954
G1 X18.125 Y393.637 E227.95031
G1 X18.036 Y392.930 E228.05075
G1 X17.938 Y391.221 E228.29174
G1 X18.171 Y389.334 E228.55945
G1 X19.057 Y386.497 E228.97793
G1 X19.800 Y385.001 E229.21307
G1 X20.928 Y383.417 E229.48704
G1 X22.184 Y382.165 E229.73669
G1 X23.058 Y381.546 E229.88756
G1 X18.125 Y356.237 E233.51831
G1 X18.036 Y355.530 E233.61876
G1 X17.938 Y353.821 E233.85973
G1 X18.171 Y351.934 E234.12741
G1 X19.057 Y349.098 E234.54588
G1 X19.800 Y347.602 E234.78106
G1 X20.929 Y346.016 E235.05515
G1 X22.186 Y344.763 E235.30500
G1 X22.921 Y344.243 E235.43192
G1 X18.125 Y319.637 E238.96183
G1 X18.036 Y318.930 E239.06228
G1 X17.938 Y317.221 E239.30325
G1 X18.171 Y315.334 E239.57093
G1 X19.057 Y312.498 E239.98937
G1 X19.799 Y311.002 E240.22452
G1 X20.929 Y309.416 E240.49866
G1 X22.186 Y308.163 E240.74865
G1 X23.058 Y307.546 E240.89908
G1 X18.125 Y282.237 E244.52984
G1 X18.036 Y281.530 E244.63029
G1 X17.938 Y279.821 E244.87126
G1 X18.171 Y277.934 E245.13895
G1 X19.057 Y275.098 E245.55741
G1 X19.799 Y273.602 E245.79254
G1 X20.929 Y272.017 E246.06660
G1 X22.185 Y270.764 E246.31645
G1 X23.058 Y270.146 E246.46709
G1 X18.125 Y244.837 E250.09784
G1 X18.036 Y244.130 E250.19825
G1 X17.938 Y242.421 E250.43922
G1 X18.171 Y240.534 E250.70697
G1 X19.057 Y237.697 E251.12544
G1 X19.799 Y236.202 E251.36056
G1 X20.928 Y234.617 E251.63457
G1 X22.184 Y233.365 E251.88431
G1 X23.583 Y232.374 E252.12564
G1 X24.837 Y231.718 E252.32489
G1 X27.549 Y230.735 E252.73111
G1 X29.359 Y230.417 E252.98985
G92 E0.00000
G1 E-3.00000 F900
; feature outer perimeter
G1 X30.344 Y241.492 F9000
G92 E0.00000
G1 E4.00000 F900
G92 E0.00000
G1 X669.765 Y241.496 E90.03686 F1820
G1 X669.937 Y241.498 E90.06116
G1 X670.352 Y241.633 E90.12256
G1 X670.475 Y241.719 E90.14373
G1 X670.925 Y242.198 E90.23627
G1 X670.969 Y243.135 E90.36824
G1 X665.547 Y270.960 E94.36008
G1 X665.316 Y271.384 E94.42806
G1 X665.011 Y271.814 E94.50228
G1 X664.704 Y271.945 E94.54925
G1 X664.246 Y272.071 E94.61621
G1 X35.749 Y272.070 E183.11481
G1 X35.191 Y272.029 E183.19369
G1 X34.771 Y271.689 E183.26981
G1 X34.688 Y271.608 E183.28610
G1 X34.511 Y271.015 E183.37327
G1 X29.197 Y243.752 E187.28445
G1 X29.071 Y243.104 F1820
G1 X29.055 Y242.835
G1 X29.354 Y241.877
G1 X29.371 Y241.853
G1 X30.274 Y241.510
G1 X30.344 Y241.492
G1 X31.344 Y241.492 F1820
; feature solid layer
G1 X30.666 Y246.790 F9000
G92 E0.00000
G1 X30.666 Y242.352 E0.62491 F2548
G1 X31.741 Y242.352 E0.77631
G1 X31.741 Y252.306 E2.17790
G1 X32.816 Y257.822 E2.96920
G1 X32.816 Y242.352 E5.14747
G1 X33.891 Y242.352 E5.29887
G1 X33.891 Y263.338 E8.25382
G1 X34.966 Y268.854 E9.04512
G1 X34.966 Y242.352 E12.77676
G1 X36.042 Y242.352 E12.92815
G1 X36.042 Y271.210 E16.99155
G1 X37.117 Y271.210 E17.14295
G1 X37.117 Y242.352 E21.20634
G1 X38.192 Y242.352 E21.35774
G1 X38.192 Y271.210 E25.42113
G1 X39.267 Y271.210 E25.57253
G1 X39.267 Y242.352 E29.63592
G1 X40.342 Y242.352 E29.78732
G1 X40.342 Y271.210 E33.85071
G1 X41.418 Y271.210 E34.00211
G1 X41.418 Y242.352 E38.06549
G1 X42.493 Y242.352 E38.21689
G1 X42.493 Y271.210 E42.28028
G1 X43.568 Y271.210 E42.43168
G1 X43.568 Y242.352 E46.49507
G1 X44.643 Y242.352 E46.64647
G1 X44.643 Y271.210 E50.70986
G1 X45.719 Y271.210 E50.86126
G1 X45.719 Y242.352 E54.92465
G1 X46.794 Y242.352 E55.07604
G1 X46.794 Y271.210 E59.13943
G1 X47.869 Y271.210 E59.29083
