; G-Code generated by Simplify3D(R) Version 5.1.2
; Oct 26, 2023 at 10:06:13 AM
; Settings Summary
;   processName,Baseplate
;   autoConfigureMaterial,PLA
;   autoConfigureQuality,0.8 mm
;   autoConfigureExtruders,Left Extruder Only
;   targetModels,ASU3base,ASU3base(2),ASU3base(3),ASU3base(4),ASU3base(5),ASU3base(6)
;   profileName,AngelaSu Base
;   profileVersion,2023-10-19 14:43:47
;   app,S3D-Software 5.1.2
;   technology,fff
;   baseProfile,Builder Extreme 2000
;   extruder,Left Extruder
;   toolheadNumber,0
;   nozzleDiameter,0.80000
;   extrusionMultiplier,1.05000
;   extrusionWidthMode,automatic
;   extrusionWidth,0.96000
;   useRetraction,1
;   retractDistance,3.00000
;   extraRestartDistance,1.00000
;   retractVerticalLift,0.00000
;   retractSpeed,900.00000
;   useCoasting,1
;   coastingDistance,3.00000
;   useWiping,1
;   wipingDistance,1.00000
;   speedMaxFlowRate,900.00000
;   toolheadOffsetX,0.00000
;   toolheadOffsetY,0.00000
;   filamentDiameter,1.75000
;   filamentPricePerKilogram,30.00000
;   filamentDensity,1.25000
;   primaryExtruder,Left Extruder
;   layerHeight,0.30000
;   topSolidLayers,0
;   bottomSolidLayers,3
;   outlinePerimeters,1
;   useVaseMode,0
;   useAdaptiveLayerHeights,0
;   minAdaptiveLayerHeight,0.10000
;   maxAdaptiveLayerHeight,0.30000
;   adaptiveSmoothingLevel,5
;   horizontalOuterCompensation,0.00000
;   horizontalInnerCompensation,0.00000
;   firstLayerUnits,percentage
;   firstLayerHeightPercentage,100
;   firstLayerWidthPercentage,112
;   firstLayerSpeedPercentage,70
;   firstLayerHeightAbsolute,0.30000
;   firstLayerWidthAbsolute,0.40000
;   firstLayerSpeedAbsolute,900.00000
;   startPointStrategy,closest
;   alignStartPointsX,0.00000
;   alignStartPointsY,650.00000
;   restrictStartPoints,0
;   perimeterPrintingOrder,inside_out
;   islandPrintingOrder,closest
;   printInfillBeforePerimeters,0
;   useSkirt,1
;   skirtExtruder,Left Extruder
;   skirtLayers,1
;   skirtOffset,10.00000
;   skirtOutlines,1
;   useRaft,0
;   raftExtruder,Left Extruder
;   raftBaseLayers,2
;   raftTopLayers,3
;   raftOffset,3.00000
;   raftSeparationDistance,0.14000
;   raftSpeedUnits,percentage
;   raftSpeedPercentage,30
;   raftSpeedAbsolute,600.00000
;   usePrimePillar,0
;   primePillarExtruder,All Extruders
;   primePillarWidth,12.00000
;   primePillarLocation,north_west
;   primePillarSpeedPercentage,200
;   primePillarInfillPercentage,100
;   autoStopPrimePillar,1
;   primePillarLayersAfterAutoStop,0
;   useOozeShield,0
;   oozeShieldExtruder,All Extruders
;   oozeShieldOffset,2.00000
;   oozeShieldOutlines,1
;   oozeShieldSidewallShape,waterfall
;   oozeShieldSidewallAngle,30
;   oozeShieldSpeedPercentage,100
;   autoStopOozeShield,1
;   oozeShieldLayersAfterAutoStop,0
;   sparseInfillExtruder,Left Extruder
;   sparseInfillPattern,aligned
;   sparseInfillRotation,90
;   sparseInfillPercentage,3
;   sparseInfillExtrusionWidthPercentage,111
;   sparseInfillCombinedLayers,1
;   denseInfillLayers,10
;   denseInfillPercentage,15
;   infillOutlineOverlapPercentage,20
;   minInfillLength,10.00000
;   externalInfillPattern,rectilinear
;   externalInfillRotation,45
;   solidInfillThresholdArea,25.00000
;   solidInfillExtraExpansion,0.00000
;   useMonotonic,0
;   useDiaphragm,0
;   diaphragmSolidLayers,3
;   diaphragmSpacingLayers,20
;   topLayerExtraExpansion,1.00000
;   topLayerExtrusionModifier,100
;   overrideFanSpeedForTopLayer,0
;   topLayerFanSpeedPercentage,100
;   useIroning,0
;   ironingOutlineOffsetPercentage,50
;   ironingExtrusionWidthPercentage,25
;   ironingExtrusionModifier,15
;   ironingSpeedModifier,30
;   sparseSupportExtruder,Left Extruder
;   sparseSupportInfillPattern,rectilinear
;   sparseSupportInfillRotation,0
;   sparseSupportInfillPercentage,20
;   sparseSupportOutlines,0
;   sparseSupportCombinedLayers,1
;   upperDenseSupportLayers,0
;   lowerDenseSupportLayers,0
;   denseSupportExtruder,Left Extruder
;   denseSupportInfillPercentage,25
;   denseSupportExtraExpansion,0.00000
;   baseSupportLayers,0
;   supportInflationDistance,2.00000
;   supportHorizontalPartOffset,0.60000
;   supportUpperSeparationLayers,1
;   supportLowerSeparationLayers,1
;   temperatureController,Left Extruder Temperature
;   enableTemperatureController,1
;   temperatureNumber,0
;   temperatureType,extruder
;   stabilizeAtStartup,1
;   temperatureSetpoints,1|220
;   useIdleCooldown,0
;   cooldownTemperature,150
;   cooldownRequiredIdleTime,180
;   cooldownReheatTime,60
;   temperatureController,Right Extruder Temperature
;   enableTemperatureController,1
;   temperatureNumber,1
;   temperatureType,extruder
;   stabilizeAtStartup,1
;   temperatureSetpoints,1|220
;   useIdleCooldown,0
;   cooldownTemperature,150
;   cooldownRequiredIdleTime,180
;   cooldownReheatTime,60
;   temperatureController,Heated Bed
;   enableTemperatureController,1
;   temperatureNumber,2
;   temperatureType,platform
;   stabilizeAtStartup,1
;   temperatureSetpoints,1|60
;   useIdleCooldown,0
;   cooldownTemperature,150
;   cooldownRequiredIdleTime,180
;   cooldownReheatTime,60
;   fan,Cooling Fan
;   fanNumber,0
;   fanType,extruder
;   blipFanToFullPower,0
;   fanSetpoints,1|0,2|100
;   increaseFanForQuickLayers,0
;   fanMaxQuickLayerTime,45.00000
;   fanMinQuickLayerTime,15.00000
;   maxQuickLayerFanSpeedPercentage,100
;   defaultPrintSpeed,5200.00000
;   outerPerimeterSpeedPercentage,50
;   innerPerimeterSpeedPercentage,100
;   topLayerSpeedPercentage,50
;   solidInfillSpeedPercentage,70
;   sparseSupportSpeedPercentage,90
;   denseSupportSpeedPercentage,70
;   travelSpeedXY,9000.00000
;   travelSpeedZ,1998.00000
;   reduceSpeedForQuickLayers,1
;   speedMaxQuickLayerTime,15.00000
;   minQuickLayerSpeedPercentage,20
;   reduceSpeedForShortPerimeters,1
;   speedMaxShortPerimeterLength,80.00000
;   minShortPerimeterSpeedPercentage,50
;   reduceSpeedForMaxFlowRate,0
;   accelXY,1000.00000
;   accelZ,150.00000
;   accelE,3000.00000
;   jerkXY,600.00000
;   jerkZ,24.00000
;   jerkE,300.00000
;   exportFileFormat,gcode
;   useStickyCommands,1
;   use5D,1
;   relativeExtrusionDistances,0
;   allowExtruderAxisZeroing,1
;   independentExtruderAxes,0
;   includeM10123,0
;   includeThumbnailImages,0
;   thumbnailImageEncoding,standard
;   thumbnailImageSizes,300|300
;   x3gMachineProfile,r2
;   overrideStepsPerMillimeter,0
;   stepsPerMillimeterX,88.57319
;   stepsPerMillimeterY,88.57319
;   stepsPerMillimeterZ,400.00000
;   stepsPerMillimeterA,96.27520
;   stepsPerMillimeterB,96.27520
;   xyzFileFormatVersion,1
;   makerBotMachineProfile,replicator_5
;   makerBotModelExtruder,mk13
;   makerBotSupportExtruder,mk14_s
;   makerBotModelMaterial,pla
;   makerBotSupportMaterial,pva
;   globalOffsetX,0.00000
;   globalOffsetY,0.00000
;   globalOffsetZ,0.00000
;   applyToolheadOffsets,0
;   buildVolumeShape,rectangular
;   buildVolumeX,700.00000
;   buildVolumeY,700.00000
;   buildVolumeZ,1820.00000
;   buildVolumeDiameter,200.00000
;   originOffsetX,0.00000
;   originOffsetY,0.00000
;   originOffsetZ,0.00000
;   homingDirectionX,min
;   homingDirectionY,min
;   homingDirectionZ,min
;   mirrorVisualX,0
;   mirrorVisualY,1
;   mirrorVisualZ,0
;   machineBackgroundModel,
;   startingScript,G28 ; home all axes|M204 S1500 ; default acceleration|M205 X15.00 ; maximum X Y jerk
;   preLayerChangeScript,
;   postLayerChangeScript,
;   preRetractionScript,
;   postRetractionScript,
;   preToolChangeScript,
;   postToolChangeScript,
;   processChangeScript,
;   endingScript,M104 T0 S0 ; left extruder heater off|M104 T1 S0 ; right extruder heater off|M140 S0 ; heated bed heater off (if you have it)|G28 X0 Y0 ; move X/Y to min endstops|M84 ; steppers off|M107 ; Fan off|G90 ; absolute positioning
;   postProcessingScript,
;   useBridging,1
;   bridgingThresholdArea,5.00000
;   bridgingInfillExtraExpansion,0.00000
;   bridgingExtrusionModifier,80
;   bridgingSpeedModifier,130
;   overrideFanSpeedForBridging,0
;   bridgingFanSpeedPercentage,50
;   useFixedBridgingAngle,0
;   fixedBridgingAngle,0
;   applyBridgingToPerimeters,0
;   bridgingPerimeterExtraOverlap,0.00000
;   minBridgingPerimeterLength,10.00000
;   useToolChangeRetraction,1
;   toolChangeRetractDistance,1.00000
;   toolChangeExtraRestartDistance,0.00000
;   toolChangeRetractSpeed,900.00000
;   toolChangePrimeOnFirstUse,0
;   toolChangeRetractAtEnd,0
;   externalThinWallType,perimeters_only
;   internalThinWallType,gap_fill
;   thinWallAllowedOverlapPercentage,15
;   singleExtrusionMinLength,1.00000
;   singleExtrusionMinWidthPercentage,50
;   singleExtrusionMaxWidthPercentage,200
;   singleExtrusionEndpointExtensionDistance,0.20000
;   onlyRetractWhenCrossingOutlines,1
;   retractBetweenLayers,1
;   retractOnTopLayers,0
;   useRetractionMinTravel,0
;   retractionMinTravel,3.00000
;   useRetractionMinExtrusion,0
;   retractionMinExtrusion,3.00000
;   onlyVerticalLiftOnTopLayers,0
;   retractWhileWiping,0
;   wipingMode,outer_perimeter
;   avoidCrossingOutlines,1
;   maxMovementDetourFactor,3.00000
;   openLoopSlicingBehavior,heal
;   openLoopThickenWidth,0.50000
;   slicingRegionRepairMode,positive
G90
M82
M106 S0 P0
M140 S60
M190 S60
M104 S220 T0
M104 S220 T1
M109 S220 T0
M109 S220 T1
G28 ; home all axes
M204 S1500 ; default acceleration
M205 X15.00 ; maximum X Y jerk
; process Baseplate
; layer 1, Z = 0.3000
T0
G92 E0.00000
G1 E-3.00000 F900
; feature skirt
; tool H0.3000 W1.075
G1 Z0.3000 F1998
G1 X29.111 Y230.417 F9000
G92 E0.00000
G1 E4.00000 F900
G92 E0.00000
G1 X671.107 Y230.424 E90.39945 F3640
G1 X672.749 Y230.685 E90.63362
G1 X674.840 Y231.366 E90.94327
G1 X676.220 Y232.051 E91.16019
G1 X677.543 Y232.970 E91.38708
G1 X678.383 Y233.695 E91.54327
G1 X679.862 Y235.272 E91.84772
G1 X680.721 Y236.494 E92.05807
G1 X681.604 Y238.231 E92.33243
G1 X682.177 Y240.396 E92.64779
G1 X682.314 Y243.309 E93.05849
G1 X682.222 Y244.570 E93.23651
G1 X677.233 Y270.155 E96.90695
G1 X677.544 Y270.371 E96.96025
G1 X678.383 Y271.095 E97.11634
G1 X679.862 Y272.672 E97.42071
G1 X680.720 Y273.894 E97.63097
G1 X681.604 Y275.630 E97.90532
G1 X682.177 Y277.796 E98.22077
G1 X682.314 Y280.710 E98.63152
G1 X682.222 Y281.970 E98.80953
G1 X677.233 Y307.555 E102.47996
G1 X677.544 Y307.771 E102.53327
G1 X678.383 Y308.495 E102.68935
G1 X679.862 Y310.072 E102.99375
G1 X680.721 Y311.294 E103.20410
G1 X681.604 Y313.031 E103.47846
G1 X682.177 Y315.196 E103.79382
G1 X682.314 Y318.109 E104.20452
G1 X682.222 Y319.370 E104.38254
G1 X677.370 Y344.250 E107.95190
G1 X678.382 Y345.095 E108.13745
G1 X679.860 Y346.669 E108.44150
G1 X680.716 Y347.887 E108.65120
G1 X681.602 Y349.624 E108.92566
G1 X682.177 Y351.794 E109.24186
G1 X682.314 Y354.711 E109.65294
G1 X682.222 Y355.971 E109.83085
G1 X677.233 Y381.555 E113.50124
G1 X677.544 Y381.771 E113.55451
G1 X678.382 Y382.495 E113.71048
G1 X679.860 Y384.069 E114.01454
G1 X680.716 Y385.287 E114.22424
G1 X681.602 Y387.024 E114.49870
G1 X682.177 Y389.194 E114.81489
G1 X682.314 Y392.111 E115.22597
G1 X682.222 Y393.371 E115.40389
G1 X677.233 Y418.955 E119.07427
G1 X677.544 Y419.171 E119.12754
G1 X678.382 Y419.894 E119.28351
G1 X679.860 Y421.469 E119.58757
G1 X680.716 Y422.687 E119.79726
G1 X681.602 Y424.424 E120.07173
G1 X682.177 Y426.594 E120.38793
G1 X682.314 Y429.511 E120.79901
G1 X682.222 Y430.771 E120.97692
G1 X676.492 Y460.155 E125.19254
G1 X675.943 Y461.678 E125.42036
G1 X675.122 Y463.184 E125.66198
G1 X674.795 Y463.709 E125.74913
G1 X673.361 Y465.733 E126.09836
G1 X671.088 Y467.567 E126.50952
G1 X668.932 Y468.487 E126.83959
G1 X668.250 Y468.725 E126.94134
G1 X666.659 Y469.159 E127.17357
G1 X665.265 Y469.346 E127.37159
G1 X35.296 Y469.345 E216.07763
G1 X33.349 Y469.218 E216.35239
G1 X32.001 Y468.941 E216.54618
G1 X30.392 Y468.385 E216.78589
G1 X28.781 Y467.490 E217.04534
G1 X26.993 Y466.012 E217.37200
G1 X25.655 Y464.711 E217.63470
G1 X24.256 Y462.402 E218.01494
G1 X23.572 Y460.110 E218.35173
G1 X23.450 Y459.612 E218.42391
G1 X17.875 Y431.039 E222.52324
G1 X17.786 Y430.330 E222.62375
G1 X17.688 Y428.621 E222.86488
G1 X17.922 Y426.732 E223.13281
G1 X18.808 Y423.895 E223.55141
G1 X19.551 Y422.399 E223.78658
G1 X20.682 Y420.813 E224.06081
G1 X21.941 Y419.559 E224.31096
G1 X22.812 Y418.944 E224.46120
G1 X17.875 Y393.639 E228.09159
G1 X17.786 Y392.930 E228.19211
G1 X17.688 Y391.221 E228.43324
G1 X17.922 Y389.332 E228.70116
G1 X18.808 Y386.495 E229.11980
G1 X19.552 Y384.998 E229.35505
G1 X20.682 Y383.413 E229.62918
G1 X21.939 Y382.161 E229.87904
G1 X22.812 Y381.544 E230.02956
G1 X17.875 Y356.239 E233.65996
G1 X17.786 Y355.530 E233.76047
G1 X17.688 Y353.821 E234.00158
G1 X17.922 Y351.933 E234.26947
G1 X18.808 Y349.095 E234.68811
G1 X19.552 Y347.599 E234.92339
G1 X20.682 Y346.013 E235.19754
G1 X21.939 Y344.761 E235.44740
G1 X22.675 Y344.241 E235.57427
G1 X17.875 Y319.639 E239.10380
G1 X17.786 Y318.930 E239.20432
G1 X17.688 Y317.221 E239.44543
G1 X17.922 Y315.333 E239.71332
G1 X18.808 Y312.495 E240.13194
G1 X19.552 Y310.999 E240.36718
G1 X20.682 Y309.413 E240.64138
G1 X21.940 Y308.160 E240.89139
G1 X22.812 Y307.544 E241.04177
G1 X17.875 Y282.239 E244.67216
G1 X17.786 Y281.530 E244.77268
G1 X17.688 Y279.821 E245.01380
G1 X17.922 Y277.933 E245.28169
G1 X18.808 Y275.095 E245.70032
G1 X19.552 Y273.599 E245.93555
G1 X20.682 Y272.014 E246.20967
G1 X21.939 Y270.761 E246.45953
G1 X22.812 Y270.144 E246.61013
G1 X17.875 Y244.839 E250.24051
G1 X17.786 Y244.131 E250.34098
G1 X17.688 Y242.421 E250.58211
G1 X17.922 Y240.533 E250.85006
G1 X18.808 Y237.695 E251.26870
G1 X19.552 Y236.199 E251.50391
G1 X20.681 Y234.614 E251.77794
G1 X21.937 Y233.363 E252.02759
G1 X23.336 Y232.373 E252.26889
G1 X24.590 Y231.717 E252.46813
G1 X27.302 Y230.735 E252.87437
G1 X29.111 Y230.417 E253.13293
G92 E0.00000
G1 E-3.00000 F900
; feature outer perimeter
G1 X30.096 Y241.492 F9000
G92 E0.00000
G1 E4.00000 F900
G92 E0.00000
G1 X670.013 Y241.496 E90.10684 F1820
G1 X670.186 Y241.498 E90.13118
G1 X670.601 Y241.633 E90.19266
G1 X670.725 Y241.719 E90.21386
G1 X671.175 Y242.199 E90.30644
G1 X671.219 Y243.134 E90.43836
G1 X665.792 Y270.960 E94.43031
G1 X665.561 Y271.384 E94.49831
G1 X665.256 Y271.814 E94.57254
G1 X664.949 Y271.945 E94.61959
G1 X664.490 Y272.071 E94.68660
G1 X35.505 Y272.070 E183.25400
G1 X34.946 Y272.029 E183.33296
G1 X34.526 Y271.689 E183.40915
G1 X34.443 Y271.608 E183.42545
G1 X34.266 Y271.015 E183.51262
G1 X28.947 Y243.751 E187.42404
G1 X28.821 Y243.104 F1820
G1 X28.806 Y242.835
G1 X29.105 Y241.878
G1 X29.122 Y241.854
G1 X30.025 Y241.510
G1 X30.096 Y241.492
G1 X31.096 Y241.492 F1820
; feature solid layer
G1 X30.666 Y248.068 F9000
G92 E0.00000
G1 X30.666 Y242.352 E0.80479 F2548
G1 X31.741 Y242.352 E0.95619
G1 X31.741 Y253.579 E2.53705
G1 X32.816 Y259.091 E3.32776
G1 X32.816 Y242.352 E5.68469
G1 X33.891 Y242.352 E5.83609
G1 X33.891 Y264.602 E8.96911
G1 X34.966 Y270.114 E9.75982
G1 X34.966 Y242.352 E13.66891
G1 X36.042 Y242.352 E13.82031
G1 X36.042 Y271.210 E17.88370
G1 X37.117 Y271.210 E18.03510
G1 X37.117 Y242.352 E22.09850
G1 X38.192 Y242.352 E22.24989
G1 X38.192 Y271.210 E26.31329
G1 X39.267 Y271.210 E26.46469
G1 X39.267 Y242.352 E30.52808
G1 X40.342 Y242.352 E30.67948
G1 X40.342 Y271.210 E34.74287
G1 X41.418 Y271.210 E34.89427
G1 X41.418 Y242.352 E38.95766
G1 X42.493 Y242.352 E39.10906
G1 X42.493 Y271.210 E43.17245
G1 X43.568 Y271.210 E43.32385
G1 X43.568 Y242.352 E47.38723
G1 X44.643 Y242.352 E47.53864
G1 X44.643 Y271.210 E51.60203
G1 X45.719 Y271.210 E51.75343
G1 X45.719 Y242.352 E55.81682
G1 X46.794 Y242.352 E55.96822
G1 X46.794 Y271.210 E60.03161
G1 X47.869 Y271.210 E60.18301
