; G-Code generated by Simplify3D(R) Version 5.1.2
; Oct 28, 2023 at 9:35:21 PM
; Settings Summary
;   processName,Baseplate
;   autoConfigureMaterial,PLA
;   autoConfigureQuality,0.8 mm
;   autoConfigureExtruders,Left Extruder Only
;   targetModels,ASU3base,ASU3base(2),ASU3base(3)
;   profileName,AngelaSu Base
;   profileVersion,2023-10-19 14:43:47
;   app,S3D-Software 5.1.2
;   technology,fff
;   baseProfile,Builder Extreme 2000
;   extruder,Left Extruder
;   toolheadNumber,0
;   nozzleDiameter,0.80000
;   extrusionMultiplier,1.05000
;   extrusionWidthMode,automatic
;   extrusionWidth,0.96000
;   useRetraction,1
;   retractDistance,3.00000
;   extraRestartDistance,1.00000
;   retractVerticalLift,0.00000
;   retractSpeed,900.00000
;   useCoasting,1
;   coastingDistance,3.00000
;   useWiping,1
;   wipingDistance,1.00000
;   speedMaxFlowRate,900.00000
;   toolheadOffsetX,0.00000
;   toolheadOffsetY,0.00000
;   filamentDiameter,1.75000
;   filamentPricePerKilogram,30.00000
;   filamentDensity,1.25000
;   primaryExtruder,Left Extruder
;   layerHeight,0.30000
;   topSolidLayers,0
;   bottomSolidLayers,3
;   outlinePerimeters,1
;   useVaseMode,0
;   useAdaptiveLayerHeights,0
;   minAdaptiveLayerHeight,0.10000
;   maxAdaptiveLayerHeight,0.30000
;   adaptiveSmoothingLevel,5
;   horizontalOuterCompensation,0.00000
;   horizontalInnerCompensation,0.00000
;   firstLayerUnits,percentage
;   firstLayerHeightPercentage,100
;   firstLayerWidthPercentage,112
;   firstLayerSpeedPercentage,70
;   firstLayerHeightAbsolute,0.30000
;   firstLayerWidthAbsolute,0.40000
;   firstLayerSpeedAbsolute,900.00000
;   startPointStrategy,closest
;   alignStartPointsX,0.00000
;   alignStartPointsY,650.00000
;   restrictStartPoints,0
;   perimeterPrintingOrder,inside_out
;   islandPrintingOrder,closest
;   printInfillBeforePerimeters,0
;   useSkirt,1
;   skirtExtruder,Left Extruder
;   skirtLayers,1
;   skirtOffset,10.00000
;   skirtOutlines,1
;   useRaft,0
;   raftExtruder,Left Extruder
;   raftBaseLayers,2
;   raftTopLayers,3
;   raftOffset,3.00000
;   raftSeparationDistance,0.14000
;   raftSpeedUnits,percentage
;   raftSpeedPercentage,30
;   raftSpeedAbsolute,600.00000
;   usePrimePillar,0
;   primePillarExtruder,All Extruders
;   primePillarWidth,12.00000
;   primePillarLocation,north_west
;   primePillarSpeedPercentage,200
;   primePillarInfillPercentage,100
;   autoStopPrimePillar,1
;   primePillarLayersAfterAutoStop,0
;   useOozeShield,0
;   oozeShieldExtruder,All Extruders
;   oozeShieldOffset,2.00000
;   oozeShieldOutlines,1
;   oozeShieldSidewallShape,waterfall
;   oozeShieldSidewallAngle,30
;   oozeShieldSpeedPercentage,100
;   autoStopOozeShield,1
;   oozeShieldLayersAfterAutoStop,0
;   sparseInfillExtruder,Left Extruder
;   sparseInfillPattern,aligned
;   sparseInfillRotation,90
;   sparseInfillPercentage,3
;   sparseInfillExtrusionWidthPercentage,111
;   sparseInfillCombinedLayers,1
;   denseInfillLayers,10
;   denseInfillPercentage,15
;   infillOutlineOverlapPercentage,20
;   minInfillLength,10.00000
;   externalInfillPattern,rectilinear
;   externalInfillRotation,45
;   solidInfillThresholdArea,25.00000
;   solidInfillExtraExpansion,0.00000
;   useMonotonic,0
;   useDiaphragm,0
;   diaphragmSolidLayers,3
;   diaphragmSpacingLayers,20
;   topLayerExtraExpansion,1.00000
;   topLayerExtrusionModifier,100
;   overrideFanSpeedForTopLayer,0
;   topLayerFanSpeedPercentage,100
;   useIroning,0
;   ironingOutlineOffsetPercentage,50
;   ironingExtrusionWidthPercentage,25
;   ironingExtrusionModifier,15
;   ironingSpeedModifier,30
;   sparseSupportExtruder,Left Extruder
;   sparseSupportInfillPattern,rectilinear
;   sparseSupportInfillRotation,0
;   sparseSupportInfillPercentage,20
;   sparseSupportOutlines,0
;   sparseSupportCombinedLayers,1
;   upperDenseSupportLayers,0
;   lowerDenseSupportLayers,0
;   denseSupportExtruder,Left Extruder
;   denseSupportInfillPercentage,25
;   denseSupportExtraExpansion,0.00000
;   baseSupportLayers,0
;   supportInflationDistance,2.00000
;   supportHorizontalPartOffset,0.60000
;   supportUpperSeparationLayers,1
;   supportLowerSeparationLayers,1
;   temperatureController,Left Extruder Temperature
;   enableTemperatureController,1
;   temperatureNumber,0
;   temperatureType,extruder
;   stabilizeAtStartup,1
;   temperatureSetpoints,1|220
;   useIdleCooldown,0
;   cooldownTemperature,150
;   cooldownRequiredIdleTime,180
;   cooldownReheatTime,60
;   temperatureController,Right Extruder Temperature
;   enableTemperatureController,1
;   temperatureNumber,1
;   temperatureType,extruder
;   stabilizeAtStartup,1
;   temperatureSetpoints,1|220
;   useIdleCooldown,0
;   cooldownTemperature,150
;   cooldownRequiredIdleTime,180
;   cooldownReheatTime,60
;   temperatureController,Heated Bed
;   enableTemperatureController,1
;   temperatureNumber,2
;   temperatureType,platform
;   stabilizeAtStartup,1
;   temperatureSetpoints,1|60
;   useIdleCooldown,0
;   cooldownTemperature,150
;   cooldownRequiredIdleTime,180
;   cooldownReheatTime,60
;   fan,Cooling Fan
;   fanNumber,0
;   fanType,extruder
;   blipFanToFullPower,0
;   fanSetpoints,1|0,2|100
;   increaseFanForQuickLayers,0
;   fanMaxQuickLayerTime,45.00000
;   fanMinQuickLayerTime,15.00000
;   maxQuickLayerFanSpeedPercentage,100
;   defaultPrintSpeed,5200.00000
;   outerPerimeterSpeedPercentage,50
;   innerPerimeterSpeedPercentage,100
;   topLayerSpeedPercentage,50
;   solidInfillSpeedPercentage,70
;   sparseSupportSpeedPercentage,90
;   denseSupportSpeedPercentage,70
;   travelSpeedXY,9000.00000
;   travelSpeedZ,1998.00000
;   reduceSpeedForQuickLayers,1
;   speedMaxQuickLayerTime,15.00000
;   minQuickLayerSpeedPercentage,20
;   reduceSpeedForShortPerimeters,1
;   speedMaxShortPerimeterLength,80.00000
;   minShortPerimeterSpeedPercentage,50
;   reduceSpeedForMaxFlowRate,0
;   accelXY,1000.00000
;   accelZ,150.00000
;   accelE,3000.00000
;   jerkXY,600.00000
;   jerkZ,24.00000
;   jerkE,300.00000
;   exportFileFormat,gcode
;   useStickyCommands,1
;   use5D,1
;   relativeExtrusionDistances,0
;   allowExtruderAxisZeroing,1
;   independentExtruderAxes,0
;   includeM10123,0
;   includeThumbnailImages,0
;   thumbnailImageEncoding,standard
;   thumbnailImageSizes,300|300
;   x3gMachineProfile,r2
;   overrideStepsPerMillimeter,0
;   stepsPerMillimeterX,88.57319
;   stepsPerMillimeterY,88.57319
;   stepsPerMillimeterZ,400.00000
;   stepsPerMillimeterA,96.27520
;   stepsPerMillimeterB,96.27520
;   xyzFileFormatVersion,1
;   makerBotMachineProfile,replicator_5
;   makerBotModelExtruder,mk13
;   makerBotSupportExtruder,mk14_s
;   makerBotModelMaterial,pla
;   makerBotSupportMaterial,pva
;   globalOffsetX,0.00000
;   globalOffsetY,0.00000
;   globalOffsetZ,0.00000
;   applyToolheadOffsets,0
;   buildVolumeShape,rectangular
;   buildVolumeX,700.00000
;   buildVolumeY,700.00000
;   buildVolumeZ,1820.00000
;   buildVolumeDiameter,200.00000
;   originOffsetX,0.00000
;   originOffsetY,0.00000
;   originOffsetZ,0.00000
;   homingDirectionX,min
;   homingDirectionY,min
;   homingDirectionZ,min
;   mirrorVisualX,0
;   mirrorVisualY,1
;   mirrorVisualZ,0
;   machineBackgroundModel,
;   startingScript,G28 ; home all axes|M204 S1500 ; default acceleration|M205 X15.00 ; maximum X Y jerk
;   preLayerChangeScript,
;   postLayerChangeScript,
;   preRetractionScript,
;   postRetractionScript,
;   preToolChangeScript,
;   postToolChangeScript,
;   processChangeScript,
;   endingScript,M104 T0 S0 ; left extruder heater off|M104 T1 S0 ; right extruder heater off|M140 S0 ; heated bed heater off (if you have it)|G28 X0 Y0 ; move X/Y to min endstops|M84 ; steppers off|M107 ; Fan off|G90 ; absolute positioning
;   postProcessingScript,
;   useBridging,1
;   bridgingThresholdArea,5.00000
;   bridgingInfillExtraExpansion,0.00000
;   bridgingExtrusionModifier,80
;   bridgingSpeedModifier,130
;   overrideFanSpeedForBridging,0
;   bridgingFanSpeedPercentage,50
;   useFixedBridgingAngle,0
;   fixedBridgingAngle,0
;   applyBridgingToPerimeters,0
;   bridgingPerimeterExtraOverlap,0.00000
;   minBridgingPerimeterLength,10.00000
;   useToolChangeRetraction,1
;   toolChangeRetractDistance,1.00000
;   toolChangeExtraRestartDistance,0.00000
;   toolChangeRetractSpeed,900.00000
;   toolChangePrimeOnFirstUse,0
;   toolChangeRetractAtEnd,0
;   externalThinWallType,perimeters_only
;   internalThinWallType,gap_fill
;   thinWallAllowedOverlapPercentage,15
;   singleExtrusionMinLength,1.00000
;   singleExtrusionMinWidthPercentage,50
;   singleExtrusionMaxWidthPercentage,200
;   singleExtrusionEndpointExtensionDistance,0.20000
;   onlyRetractWhenCrossingOutlines,1
;   retractBetweenLayers,1
;   retractOnTopLayers,0
;   useRetractionMinTravel,0
;   retractionMinTravel,3.00000
;   useRetractionMinExtrusion,0
;   retractionMinExtrusion,3.00000
;   onlyVerticalLiftOnTopLayers,0
;   retractWhileWiping,0
;   wipingMode,outer_perimeter
;   avoidCrossingOutlines,1
;   maxMovementDetourFactor,3.00000
;   openLoopSlicingBehavior,heal
;   openLoopThickenWidth,0.50000
;   slicingRegionRepairMode,positive
G90
M82
M106 S0 P0
M140 S60
M190 S60
M104 S220 T0
M104 S220 T1
M109 S220 T0
M109 S220 T1
G28 ; home all axes
M204 S1500 ; default acceleration
M205 X15.00 ; maximum X Y jerk
; process Baseplate
; layer 1, Z = 0.3000
T0
G92 E0.00000
G1 E-3.00000 F900
; feature skirt
; tool H0.3000 W1.075
G1 Z0.3000 F1998
G1 X29.359 Y230.417 F9000
G92 E0.00000
G1 E4.00000 F900
G92 E0.00000
G1 X670.858 Y230.424 E90.32960 F3640
G1 X672.502 Y230.685 E90.56391
G1 X674.593 Y231.367 E90.87372
G1 X675.975 Y232.054 E91.09092
G1 X677.298 Y232.973 E91.31783
G1 X678.136 Y233.698 E91.47386
G1 X679.616 Y235.275 E91.77840
G1 X680.475 Y236.501 E91.98914
G1 X681.356 Y238.238 E92.26336
G1 X681.927 Y240.398 E92.57807
G1 X682.065 Y243.309 E92.98839
G1 X681.973 Y244.569 E93.16630
G1 X676.987 Y270.157 E96.83710
G1 X677.299 Y270.374 E96.89063
G1 X678.136 Y271.098 E97.04653
G1 X679.616 Y272.675 E97.35102
G1 X680.475 Y273.901 E97.56179
G1 X681.356 Y275.638 E97.83602
G1 X681.927 Y277.798 E98.15073
G1 X682.065 Y280.709 E98.56105
G1 X681.973 Y281.969 E98.73897
G1 X676.987 Y307.557 E102.40976
G1 X677.298 Y307.774 E102.46323
G1 X678.136 Y308.498 E102.61919
G1 X679.616 Y310.075 E102.92369
G1 X680.475 Y311.301 E103.13445
G1 X681.356 Y313.038 E103.40868
G1 X681.927 Y315.198 E103.72338
G1 X682.065 Y318.109 E104.13371
G1 X681.973 Y319.369 E104.31162
G1 X676.247 Y348.754 E108.52707
G1 X675.699 Y350.275 E108.75478
G1 X674.878 Y351.781 E108.99629
G1 X674.551 Y352.306 E109.08337
G1 X673.118 Y354.330 E109.43262
G1 X670.845 Y356.165 E109.84390
G1 X668.690 Y357.086 E110.17401
G1 X668.007 Y357.324 E110.27577
G1 X666.416 Y357.759 E110.50803
G1 X665.021 Y357.946 E110.70619
G1 X35.540 Y357.945 E199.34353
G1 X33.592 Y357.818 E199.61840
G1 X32.243 Y357.541 E199.81228
G1 X30.634 Y356.984 E200.05209
G1 X29.023 Y356.088 E200.31163
G1 X27.235 Y354.609 E200.63835
G1 X25.898 Y353.308 E200.90100
G1 X24.500 Y350.999 E201.28114
G1 X23.817 Y348.708 E201.61783
G1 X23.695 Y348.210 E201.68990
G1 X18.125 Y319.637 E205.78901
G1 X18.036 Y318.930 E205.88946
G1 X17.938 Y317.221 E206.13043
G1 X18.171 Y315.334 E206.39811
G1 X19.057 Y312.498 E206.81656
G1 X19.799 Y311.002 E207.05170
G1 X20.929 Y309.416 E207.32584
G1 X22.186 Y308.163 E207.57583
G1 X23.058 Y307.546 E207.72626
G1 X18.125 Y282.237 E211.35703
G1 X18.036 Y281.530 E211.45747
G1 X17.938 Y279.821 E211.69844
G1 X18.171 Y277.934 E211.96613
G1 X19.057 Y275.098 E212.38459
G1 X19.799 Y273.602 E212.61972
G1 X20.929 Y272.017 E212.89378
G1 X22.185 Y270.764 E213.14363
G1 X23.058 Y270.146 E213.29427
G1 X18.125 Y244.837 E216.92502
G1 X18.036 Y244.130 E217.02543
G1 X17.938 Y242.421 E217.26640
G1 X18.171 Y240.534 E217.53415
G1 X19.057 Y237.697 E217.95262
G1 X19.799 Y236.202 E218.18774
G1 X20.928 Y234.617 E218.46175
G1 X22.184 Y233.365 E218.71149
G1 X23.583 Y232.374 E218.95282
G1 X24.837 Y231.718 E219.15207
G1 X27.549 Y230.735 E219.55829
G1 X29.359 Y230.417 E219.81703
G92 E0.00000
G1 E-3.00000 F900
; feature outer perimeter
G1 X30.344 Y241.492 F9000
G92 E0.00000
G1 E4.00000 F900
G92 E0.00000
G1 X669.765 Y241.496 E90.03686 F1820
G1 X669.937 Y241.498 E90.06116
G1 X670.352 Y241.633 E90.12256
G1 X670.475 Y241.719 E90.14373
G1 X670.925 Y242.198 E90.23627
G1 X670.969 Y243.135 E90.36824
G1 X665.547 Y270.960 E94.36008
G1 X665.316 Y271.384 E94.42806
G1 X665.011 Y271.814 E94.50228
G1 X664.704 Y271.945 E94.54925
G1 X664.246 Y272.071 E94.61621
G1 X35.749 Y272.070 E183.11481
G1 X35.191 Y272.029 E183.19369
G1 X34.771 Y271.689 E183.26981
G1 X34.688 Y271.608 E183.28610
G1 X34.511 Y271.015 E183.37327
G1 X29.197 Y243.752 E187.28445
G1 X29.071 Y243.104 F1820
G1 X29.055 Y242.835
G1 X29.354 Y241.877
G1 X29.371 Y241.853
G1 X30.274 Y241.510
G1 X30.344 Y241.492
G1 X31.344 Y241.492 F1820
; feature solid layer
G1 X30.666 Y246.790 F9000
G92 E0.00000
G1 X30.666 Y242.352 E0.62491 F2548
G1 X31.741 Y242.352 E0.77631
G1 X31.741 Y252.306 E2.17790
G1 X32.816 Y257.822 E2.96920
G1 X32.816 Y242.352 E5.14747
G1 X33.891 Y242.352 E5.29887
G1 X33.891 Y263.338 E8.25382
G1 X34.966 Y268.854 E9.04512
G1 X34.966 Y242.352 E12.77676
G1 X36.042 Y242.352 E12.92815
G1 X36.042 Y271.210 E16.99155
G1 X37.117 Y271.210 E17.14295
G1 X37.117 Y242.352 E21.20634
G1 X38.192 Y242.352 E21.35774
G1 X38.192 Y271.210 E25.42113
G1 X39.267 Y271.210 E25.57253
G1 X39.267 Y242.352 E29.63592
G1 X40.342 Y242.352 E29.78732
G1 X40.342 Y271.210 E33.85071
G1 X41.418 Y271.210 E34.00211
G1 X41.418 Y242.352 E38.06549
G1 X42.493 Y242.352 E38.21689
G1 X42.493 Y271.210 E42.28028
G1 X43.568 Y271.210 E42.43168
G1 X43.568 Y242.352 E46.49507
G1 X44.643 Y242.352 E46.64647
G1 X44.643 Y271.210 E50.70986
G1 X45.719 Y271.210 E50.86126
G1 X45.719 Y242.352 E54.92465
G1 X46.794 Y242.352 E55.07604
G1 X46.794 Y271.210 E59.13943
G1 X47.869 Y271.210 E59.29083
G1 X47.869 Y242.352 E63.35422
G1 X48.944 Y242.352 E63.50562
G1 X48.944 Y271.210 E67.56901
G1 X50.019 Y271.210 E67.72041
G1 X50.019 Y242.353 E71.78379
G1 X51.094 Y242.353 E71.93519
G1 X51.094 Y271.210 E75.99858
G1 X52.170 Y271.210 E76.14998
G1 X52.170 Y242.353 E80.21336
G1 X53.245 Y242.353 E80.36476
G1 X53.245 Y271.210 E84.42814
G1 X54.320 Y271.210 E84.57954
G1 X54.320 Y242.353 E88.64293
G1 X55.395 Y242.353 E88.79432
G1 X55.395 Y271.210 E92.85771
G1 X56.470 Y271.210 E93.00910
G1 X56.470 Y242.353 E97.07249
G1 X57.546 Y242.353 E97.22389
G1 X57.546 Y271.210 E101.28727
G1 X58.621 Y271.210 E101.43867
G1 X58.621 Y242.353 E105.50205
G1 X59.696 Y242.353 E105.65345
G1 X59.696 Y271.210 E109.71683
G1 X60.771 Y271.210 E109.86823
G1 X60.771 Y242.353 E113.93161
G1 X61.846 Y242.353 E114.08301
G1 X61.846 Y271.210 E118.14639
G1 X62.922 Y271.210 E118.29778
G1 X62.922 Y242.353 E122.36116
G1 X63.997 Y242.353 E122.51256
G1 X63.997 Y271.210 E126.57594
G1 X65.072 Y271.210 E126.72734
G1 X65.072 Y242.353 E130.79071
G1 X66.147 Y242.353 E130.94211
G1 X66.147 Y271.210 E135.00549
G1 X67.222 Y271.210 E135.15688
G1 X67.222 Y242.353 E139.22026
G1 X68.298 Y242.353 E139.37166
G1 X68.298 Y271.210 E143.43504
G1 X69.373 Y271.210 E143.58644
G1 X69.373 Y242.353 E147.64981
G1 X70.448 Y242.353 E147.80121
G1 X70.448 Y271.210 E151.86459
G1 X71.523 Y271.210 E152.01599
G1 X71.523 Y242.353 E156.07936
G1 X72.598 Y242.353 E156.23076
G1 X72.598 Y271.210 E160.29413
G1 X73.674 Y271.210 E160.44554
G1 X73.674 Y242.353 E164.50891
G1 X74.749 Y242.353 E164.66031
G1 X74.749 Y271.210 E168.72368
G1 X75.824 Y271.210 E168.87508
G1 X75.824 Y242.353 E172.93845
G1 X76.899 Y242.353 E173.08985
G1 X76.899 Y271.210 E177.15322
G1 X77.974 Y271.210 E177.30462
G1 X77.974 Y242.353 E181.36799
G1 X79.050 Y242.353 E181.51939
G1 X79.050 Y271.210 E185.58276
G1 X80.125 Y271.210 E185.73416
G1 X80.125 Y242.353 E189.79753
G1 X81.200 Y242.353 E189.94893
G1 X81.200 Y271.210 E194.01229
G1 X82.275 Y271.210 E194.16369
G1 X82.275 Y242.353 E198.22706
G1 X83.350 Y242.353 E198.37846
G1 X83.350 Y271.210 E202.44182
G1 X84.426 Y271.210 E202.59322
G1 X84.426 Y242.353 E206.65659
G1 X85.501 Y242.353 E206.80798
G1 X85.501 Y271.210 E210.87135
G1 X86.576 Y271.210 E211.02275
