; G-Code generated by Simplify3D(R) Version 5.1.2
; Oct 21, 2023 at 6:55:43 PM
; Settings Summary
;   processName,ball
;   autoConfigureMaterial,PLA
;   autoConfigureQuality,0.8 mm
;   autoConfigureExtruders,Left Extruder Only
;   targetModels,b1a,b1b
;   profileName,AngelaSu Ball
;   profileVersion,2023-10-13 17:18:40
;   app,S3D-Software 5.1.2
;   technology,fff
;   baseProfile,Builder Extreme 2000
;   extruder,Left Extruder
;   toolheadNumber,0
;   nozzleDiameter,0.80000
;   extrusionMultiplier,1.05000
;   extrusionWidthMode,automatic
;   extrusionWidth,0.96000
;   useRetraction,1
;   retractDistance,3.00000
;   extraRestartDistance,1.00000
;   retractVerticalLift,0.00000
;   retractSpeed,900.00000
;   useCoasting,1
;   coastingDistance,3.00000
;   useWiping,1
;   wipingDistance,1.00000
;   speedMaxFlowRate,900.00000
;   toolheadOffsetX,0.00000
;   toolheadOffsetY,0.00000
;   filamentDiameter,1.75000
;   filamentPricePerKilogram,30.00000
;   filamentDensity,1.25000
;   primaryExtruder,Left Extruder
;   layerHeight,0.40000
;   topSolidLayers,6
;   bottomSolidLayers,4
;   outlinePerimeters,2
;   useVaseMode,0
;   useAdaptiveLayerHeights,0
;   minAdaptiveLayerHeight,0.10000
;   maxAdaptiveLayerHeight,0.30000
;   adaptiveSmoothingLevel,5
;   horizontalOuterCompensation,0.00000
;   horizontalInnerCompensation,0.00000
;   firstLayerUnits,percentage
;   firstLayerHeightPercentage,100
;   firstLayerWidthPercentage,100
;   firstLayerSpeedPercentage,70
;   firstLayerHeightAbsolute,0.30000
;   firstLayerWidthAbsolute,0.40000
;   firstLayerSpeedAbsolute,900.00000
;   startPointStrategy,closest
;   alignStartPointsX,0.00000
;   alignStartPointsY,653.00000
;   restrictStartPoints,0
;   perimeterPrintingOrder,inside_out
;   islandPrintingOrder,closest
;   printInfillBeforePerimeters,0
;   useSkirt,1
;   skirtExtruder,Left Extruder
;   skirtLayers,1
;   skirtOffset,10.00000
;   skirtOutlines,1
;   useRaft,0
;   raftExtruder,Left Extruder
;   raftBaseLayers,2
;   raftTopLayers,3
;   raftOffset,3.00000
;   raftSeparationDistance,0.14000
;   raftSpeedUnits,percentage
;   raftSpeedPercentage,30
;   raftSpeedAbsolute,600.00000
;   usePrimePillar,0
;   primePillarExtruder,All Extruders
;   primePillarWidth,12.00000
;   primePillarLocation,north_west
;   primePillarSpeedPercentage,200
;   primePillarInfillPercentage,100
;   autoStopPrimePillar,1
;   primePillarLayersAfterAutoStop,0
;   useOozeShield,0
;   oozeShieldExtruder,All Extruders
;   oozeShieldOffset,2.00000
;   oozeShieldOutlines,1
;   oozeShieldSidewallShape,waterfall
;   oozeShieldSidewallAngle,30
;   oozeShieldSpeedPercentage,100
;   autoStopOozeShield,1
;   oozeShieldLayersAfterAutoStop,0
;   sparseInfillExtruder,Left Extruder
;   sparseInfillPattern,full_honeycomb
;   sparseInfillRotation,90
;   sparseInfillPercentage,25
;   sparseInfillExtrusionWidthPercentage,111
;   sparseInfillCombinedLayers,1
;   denseInfillLayers,0
;   denseInfillPercentage,15
;   infillOutlineOverlapPercentage,10
;   minInfillLength,10.00000
;   externalInfillPattern,rectilinear
;   externalInfillRotation,0
;   solidInfillThresholdArea,25.00000
;   solidInfillExtraExpansion,0.00000
;   useMonotonic,0
;   useDiaphragm,0
;   diaphragmSolidLayers,3
;   diaphragmSpacingLayers,20
;   topLayerExtraExpansion,1.00000
;   topLayerExtrusionModifier,100
;   overrideFanSpeedForTopLayer,0
;   topLayerFanSpeedPercentage,100
;   useIroning,0
;   ironingOutlineOffsetPercentage,50
;   ironingExtrusionWidthPercentage,25
;   ironingExtrusionModifier,15
;   ironingSpeedModifier,30
;   sparseSupportExtruder,Left Extruder
;   sparseSupportInfillPattern,rectilinear
;   sparseSupportInfillRotation,0
;   sparseSupportInfillPercentage,25
;   sparseSupportOutlines,0
;   sparseSupportCombinedLayers,1
;   upperDenseSupportLayers,3
;   lowerDenseSupportLayers,0
;   denseSupportExtruder,Left Extruder
;   denseSupportInfillPercentage,50
;   denseSupportExtraExpansion,0.00000
;   baseSupportLayers,1
;   supportInflationDistance,0.00000
;   supportHorizontalPartOffset,0.60000
;   supportUpperSeparationLayers,1
;   supportLowerSeparationLayers,1
;   temperatureController,Left Extruder Temperature
;   enableTemperatureController,1
;   temperatureNumber,0
;   temperatureType,extruder
;   stabilizeAtStartup,1
;   temperatureSetpoints,1|220
;   useIdleCooldown,0
;   cooldownTemperature,150
;   cooldownRequiredIdleTime,180
;   cooldownReheatTime,60
;   temperatureController,Right Extruder Temperature
;   enableTemperatureController,1
;   temperatureNumber,1
;   temperatureType,extruder
;   stabilizeAtStartup,1
;   temperatureSetpoints,1|220
;   useIdleCooldown,0
;   cooldownTemperature,150
;   cooldownRequiredIdleTime,180
;   cooldownReheatTime,60
;   temperatureController,Heated Bed
;   enableTemperatureController,1
;   temperatureNumber,2
;   temperatureType,platform
;   stabilizeAtStartup,1
;   temperatureSetpoints,1|60
;   useIdleCooldown,0
;   cooldownTemperature,150
;   cooldownRequiredIdleTime,180
;   cooldownReheatTime,60
;   fan,Cooling Fan
;   fanNumber,0
;   fanType,extruder
;   blipFanToFullPower,0
;   fanSetpoints,1|0,2|100
;   increaseFanForQuickLayers,0
;   fanMaxQuickLayerTime,45.00000
;   fanMinQuickLayerTime,15.00000
;   maxQuickLayerFanSpeedPercentage,100
;   defaultPrintSpeed,5200.00000
;   outerPerimeterSpeedPercentage,50
;   innerPerimeterSpeedPercentage,100
;   topLayerSpeedPercentage,50
;   solidInfillSpeedPercentage,70
;   sparseSupportSpeedPercentage,90
;   denseSupportSpeedPercentage,70
;   travelSpeedXY,9000.00000
;   travelSpeedZ,1998.00000
;   reduceSpeedForQuickLayers,1
;   speedMaxQuickLayerTime,15.00000
;   minQuickLayerSpeedPercentage,20
;   reduceSpeedForShortPerimeters,1
;   speedMaxShortPerimeterLength,80.00000
;   minShortPerimeterSpeedPercentage,50
;   reduceSpeedForMaxFlowRate,0
;   accelXY,1000.00000
;   accelZ,150.00000
;   accelE,3000.00000
;   jerkXY,600.00000
;   jerkZ,24.00000
;   jerkE,300.00000
;   exportFileFormat,gcode
;   useStickyCommands,1
;   use5D,1
;   relativeExtrusionDistances,0
;   allowExtruderAxisZeroing,1
;   independentExtruderAxes,0
;   includeM10123,0
;   includeThumbnailImages,0
;   thumbnailImageEncoding,standard
;   thumbnailImageSizes,300|300
;   x3gMachineProfile,r2
;   overrideStepsPerMillimeter,0
;   stepsPerMillimeterX,88.57319
;   stepsPerMillimeterY,88.57319
;   stepsPerMillimeterZ,400.00000
;   stepsPerMillimeterA,96.27520
;   stepsPerMillimeterB,96.27520
;   xyzFileFormatVersion,1
;   makerBotMachineProfile,replicator_5
;   makerBotModelExtruder,mk13
;   makerBotSupportExtruder,mk14_s
;   makerBotModelMaterial,pla
;   makerBotSupportMaterial,pva
;   globalOffsetX,0.00000
;   globalOffsetY,0.00000
;   globalOffsetZ,0.00000
;   applyToolheadOffsets,0
;   buildVolumeShape,rectangular
;   buildVolumeX,700.00000
;   buildVolumeY,700.00000
;   buildVolumeZ,1820.00000
;   buildVolumeDiameter,200.00000
;   originOffsetX,0.00000
;   originOffsetY,0.00000
;   originOffsetZ,0.00000
;   homingDirectionX,min
;   homingDirectionY,min
;   homingDirectionZ,min
;   mirrorVisualX,0
;   mirrorVisualY,1
;   mirrorVisualZ,0
;   machineBackgroundModel,
;   startingScript,G28 ; home all axes|M204 S1500 ; default acceleration|M205 X15.00 ; maximum X Y jerk
;   preLayerChangeScript,
;   postLayerChangeScript,
;   preRetractionScript,
;   postRetractionScript,
;   preToolChangeScript,
;   postToolChangeScript,
;   processChangeScript,
;   endingScript,M104 T0 S0 ; left extruder heater off|M104 T1 S0 ; right extruder heater off|M140 S0 ; heated bed heater off (if you have it)|G28 X0 Y0 ; move X/Y to min endstops|M84 ; steppers off|M107 ; Fan off|G90 ; absolute positioning
;   postProcessingScript,
;   useBridging,1
;   bridgingThresholdArea,5.00000
;   bridgingInfillExtraExpansion,0.00000
;   bridgingExtrusionModifier,80
;   bridgingSpeedModifier,130
;   overrideFanSpeedForBridging,0
;   bridgingFanSpeedPercentage,50
;   useFixedBridgingAngle,0
;   fixedBridgingAngle,0
;   applyBridgingToPerimeters,0
;   bridgingPerimeterExtraOverlap,0.00000
;   minBridgingPerimeterLength,10.00000
;   useToolChangeRetraction,1
;   toolChangeRetractDistance,1.00000
;   toolChangeExtraRestartDistance,0.00000
;   toolChangeRetractSpeed,900.00000
;   toolChangePrimeOnFirstUse,0
;   toolChangeRetractAtEnd,0
;   externalThinWallType,single_extrusions
;   internalThinWallType,single_extrusions
;   thinWallAllowedOverlapPercentage,15
;   singleExtrusionMinLength,1.00000
;   singleExtrusionMinWidthPercentage,25
;   singleExtrusionMaxWidthPercentage,200
;   singleExtrusionEndpointExtensionDistance,0.20000
;   onlyRetractWhenCrossingOutlines,1
;   retractBetweenLayers,1
;   retractOnTopLayers,0
;   useRetractionMinTravel,0
;   retractionMinTravel,3.00000
;   useRetractionMinExtrusion,0
;   retractionMinExtrusion,3.00000
;   onlyVerticalLiftOnTopLayers,0
;   retractWhileWiping,0
;   wipingMode,outer_perimeter
;   avoidCrossingOutlines,1
;   maxMovementDetourFactor,3.00000
;   openLoopSlicingBehavior,heal
;   openLoopThickenWidth,0.50000
;   slicingRegionRepairMode,positive
G90
M82
M106 S0 P0
M140 S60
M190 S60
M104 S220 T0
M104 S220 T1
M109 S220 T0
M109 S220 T1
G28 ; home all axes
M204 S1500 ; default acceleration
M205 X15.00 ; maximum X Y jerk
; process ball
; layer 1, Z = 0.4000
T0
G92 E0.00000
G1 E-3.00000 F900
; feature skirt
; tool H0.4000 W0.960
G1 Z0.4000 F1998
G1 X293.695 Y109.820 F9000
G92 E0.00000
G1 E4.00000 F900
G92 E0.00000
G1 X293.995 Y109.117 E0.12813 F3640
G1 X294.547 Y108.045 E0.33021
G1 X295.155 Y107.121 E0.51575
G1 X296.116 Y105.950 E0.76965
G1 X296.849 Y105.218 E0.94329
G1 X298.071 Y104.217 E1.20808
G1 X298.971 Y103.623 E1.38874
G1 X300.222 Y102.971 E1.62532
G1 X301.073 Y102.619 E1.77964
G1 X302.249 Y102.248 E1.98633
G1 X303.150 Y102.050 E2.14096
G1 X304.495 Y101.875 E2.36834
G1 X305.415 Y101.837 E2.52271
G1 X306.654 Y101.895 E2.73071
G1 X307.355 Y101.975 E2.84898
G1 X308.052 Y102.103 E2.96772
G1 X307.915 Y101.330 E3.09925
G1 X307.835 Y100.550 E3.23068
G1 X307.801 Y99.237 E3.45089
G1 X307.852 Y98.354 E3.59907
G1 X308.014 Y97.219 E3.79134
G1 X308.188 Y96.438 E3.92551
G1 X308.562 Y95.205 E4.14154
G1 X308.919 Y94.325 E4.30062
G1 X309.580 Y93.042 E4.54259
G1 X310.181 Y92.124 E4.72654
G1 X311.004 Y91.117 E4.94448
G1 X311.617 Y90.484 E5.09222
G1 X312.890 Y89.373 E5.37555
G1 X313.953 Y88.653 E5.59065
G1 X315.104 Y88.063 E5.80749
G1 X315.806 Y87.766 E5.93527
G1 X317.509 Y87.187 E6.23680
G1 X319.389 Y86.674 E6.56347
G1 X320.774 Y86.392 E6.80039
G1 X322.673 Y85.885 E7.12995
G1 X323.782 Y85.713 E7.31808
G1 X325.170 Y85.648 E7.55093
G1 X326.282 Y85.714 E7.73761
G1 X327.776 Y85.963 E7.99158
G1 X328.770 Y86.232 E8.16425
G1 X330.243 Y86.789 E8.42811
G1 X331.203 Y87.270 E8.60813
G1 X332.393 Y88.026 E8.84450
G1 X333.124 Y88.588 E8.99913
G1 X334.034 Y89.423 E9.20606
G1 X334.656 Y90.103 E9.36058
G1 X335.478 Y91.179 E9.58757
G1 X335.969 Y91.954 E9.74134
G1 X336.539 Y93.054 E9.94904
G1 X336.821 Y93.703 E10.06767
G1 X337.048 Y94.340 E10.18106
G1 X337.575 Y93.897 E10.29646
G1 X338.098 Y93.510 E10.40554
G1 X339.119 Y92.847 E10.60961
G1 X339.987 Y92.393 E10.77381
G1 X341.181 Y91.904 E10.99018
G1 X341.979 Y91.650 E11.13051
G1 X343.251 Y91.354 E11.34942
G1 X344.188 Y91.223 E11.50808
G1 X345.628 Y91.153 E11.74970
G1 X346.722 Y91.215 E11.93343
G1 X348.004 Y91.422 E12.15115
G1 X348.857 Y91.635 E12.29845
G1 X350.456 Y92.179 E12.58159
G1 X351.613 Y92.740 E12.79716
G1 X352.702 Y93.442 E13.01433
G1 X353.310 Y93.901 E13.14194
G1 X354.666 Y95.087 E13.44403
G1 X357.295 Y97.701 E14.06548
G1 X358.720 Y99.318 E14.42681
G1 X359.180 Y99.930 E14.55515
G1 X359.835 Y100.949 E14.75815
G1 X360.334 Y101.944 E14.94469
G1 X360.867 Y103.364 E15.19898
G1 X361.133 Y104.365 E15.37267
G1 X361.385 Y105.913 E15.63549
G1 X361.449 Y106.968 E15.81275
G1 X361.392 Y108.378 E16.04919
G1 X361.270 Y109.310 E16.20677
G1 X361.000 Y110.519 E16.41449
G1 X360.724 Y111.390 E16.56769
G1 X360.218 Y112.608 E16.78875
G1 X359.828 Y113.367 E16.93175
G1 X359.269 Y114.265 E17.10908
G1 X358.905 Y114.778 E17.21445
G1 X358.272 Y115.564 E17.38368
G1 X359.155 Y115.897 E17.54195
G1 X359.797 Y116.190 E17.66026
G1 X360.805 Y116.734 E17.85225
G1 X361.614 Y117.274 E18.01521
G1 X362.671 Y118.130 E18.24326
G1 X363.248 Y118.674 E18.37618
G1 X364.023 Y119.525 E18.56907
G1 X364.553 Y120.215 E18.71499
G1 X365.314 Y121.394 E18.95016
G1 X365.808 Y122.370 E19.13364
G1 X366.270 Y123.583 E19.35117
G1 X366.513 Y124.426 E19.49824
G1 X366.843 Y126.082 E19.78122
G1 X366.938 Y127.363 E19.99654
G1 X366.875 Y128.666 E20.21522
G1 X366.780 Y129.440 E20.34607
G1 X366.240 Y132.144 E20.80830
G1 X365.783 Y133.900 E21.11248
G1 X364.816 Y136.792 E21.62363
G1 X364.514 Y137.506 E21.75359
G1 X363.957 Y138.590 E21.95776
G1 X363.344 Y139.524 E22.14515
G1 X362.382 Y140.697 E22.39946
G1 X361.652 Y141.426 E22.57236
G1 X360.435 Y142.424 E22.83614
G1 X359.540 Y143.016 E23.01611
G1 X358.290 Y143.670 E23.25259
G1 X357.436 Y144.025 E23.40769
G1 X356.256 Y144.398 E23.61501
G1 X355.354 Y144.597 E23.76986
G1 X354.010 Y144.772 E23.99700
G1 X353.093 Y144.810 E24.15095
G1 X351.855 Y144.754 E24.35873
G1 X351.150 Y144.673 E24.47766
G1 X350.504 Y144.555 E24.58770
G1 X350.663 Y145.521 E24.75178
G1 X350.731 Y146.224 E24.87018
G1 X350.761 Y147.309 E25.05212
G1 X350.716 Y148.161 E25.19508
G1 X350.552 Y149.377 E25.40080
G1 X350.374 Y150.193 E25.54087
G1 X349.996 Y151.443 E25.75968
G1 X349.642 Y152.320 E25.91822
G1 X348.984 Y153.601 E26.15961
G1 X348.387 Y154.516 E26.34280
G1 X347.568 Y155.523 E26.56046
G1 X346.931 Y156.181 E26.71400
G1 X347.486 Y156.496 E26.82101
G1 X348.305 Y157.043 E26.98612
G1 X348.931 Y157.533 E27.11936
G1 X350.196 Y158.690 E27.40675
G1 X352.433 Y160.939 E27.93841
G1 X353.791 Y162.452 E28.27932
G1 X354.284 Y163.100 E28.41578
G1 X354.874 Y164.014 E28.59813
G1 X355.320 Y164.869 E28.75980
G1 X355.868 Y166.209 E29.00247
G1 X356.149 Y167.124 E29.16300
G1 X356.387 Y168.261 E29.35771
G1 X356.497 Y169.220 E29.51941
G1 X356.530 Y170.689 E29.76571
G1 X356.450 Y171.724 E29.93981
G1 X356.253 Y172.832 E30.12843
G1 X356.075 Y173.542 E30.25111
G1 X355.649 Y174.847 E30.48127
G1 X355.196 Y175.859 E30.66705
G1 X354.303 Y177.353 E30.95884
G1 X354.727 Y177.561 E31.03802
G1 X355.695 Y178.128 E31.22603
G1 X356.428 Y178.647 E31.37658
G1 X357.482 Y179.539 E31.60809
G1 X358.190 Y180.266 E31.77821
G1 X359.096 Y181.396 E32.02090
G1 X359.673 Y182.290 E32.19931
G1 X360.272 Y183.461 E32.41980
G1 X360.576 Y184.185 E32.55145
G1 X360.924 Y185.226 E32.73555
G1 X361.146 Y186.172 E32.89829
G1 X361.365 Y187.753 E33.16590
G1 X361.366 Y189.187 E33.40624
G1 X361.055 Y191.296 E33.76363
G1 X360.742 Y192.619 E33.99155
G1 X359.998 Y195.356 E34.46706
G1 X359.421 Y197.130 E34.77965
G1 X358.804 Y198.609 E35.04841
G1 X358.006 Y199.932 E35.30734
G1 X356.924 Y201.244 E35.59250
G1 X356.325 Y201.860 E35.73639
G1 X355.379 Y202.685 E35.94683
G1 X354.361 Y203.381 E36.15367
G1 X352.792 Y204.202 E36.45048
G1 X351.573 Y204.659 E36.66868
G1 X349.693 Y205.107 E36.99266
G1 X348.472 Y205.250 E37.19875
G1 X347.195 Y205.250 E37.41272
G1 X346.682 Y205.211 E37.49893
G1 X346.721 Y205.768 E37.59250
G1 X346.684 Y207.098 E37.81555
G1 X346.596 Y207.919 E37.95396
G1 X346.394 Y208.997 E38.13785
G1 X346.163 Y209.838 E38.28397
G1 X345.672 Y211.178 E38.52327
G1 X345.263 Y212.041 E38.68333
G1 X344.708 Y212.979 E38.86611
G1 X344.263 Y213.620 E38.99692
G1 X343.410 Y214.670 E39.22362
G1 X342.581 Y215.486 E39.41867
G1 X341.325 Y216.474 E39.68651
G1 X340.260 Y217.123 E39.89557
G1 X339.025 Y217.688 E40.12320
G1 X338.408 Y217.924 E40.23399
G1 X336.928 Y218.386 E40.49386
G1 X333.905 Y219.187 E41.01810
G1 X331.966 Y219.600 E41.35039
G1 X331.159 Y219.704 E41.48681
G1 X330.165 Y219.755 E41.65363
G1 X329.397 Y219.738 E41.78240
G1 X327.667 Y219.573 E42.07377
G1 X325.957 Y219.110 E42.37066
G1 X323.913 Y218.167 E42.74806
G1 X322.729 Y217.414 E42.98322
G1 X321.524 Y216.399 E43.24733
G1 X320.896 Y215.772 E43.39626
G1 X320.202 Y214.950 E43.57652
G1 X319.760 Y214.344 E43.70229
G1 X319.046 Y213.201 E43.92814
G1 X318.721 Y212.540 E44.05156
G1 X318.235 Y212.866 E44.14975
