; G-Code generated by Simplify3D(R) Version 5.1.2
; Oct 21, 2023 at 6:26:03 PM
; Settings Summary
;   processName,ball
;   autoConfigureMaterial,PLA
;   autoConfigureQuality,0.8 mm
;   autoConfigureExtruders,Left Extruder Only
;   targetModels,ball1a
;   profileName,AngelaSu Ball
;   profileVersion,2023-10-13 17:18:40
;   app,S3D-Software 5.1.2
;   technology,fff
;   baseProfile,Builder Extreme 2000
;   extruder,Left Extruder
;   toolheadNumber,0
;   nozzleDiameter,0.80000
;   extrusionMultiplier,1.05000
;   extrusionWidthMode,automatic
;   extrusionWidth,0.96000
;   useRetraction,1
;   retractDistance,3.00000
;   extraRestartDistance,1.00000
;   retractVerticalLift,0.00000
;   retractSpeed,900.00000
;   useCoasting,1
;   coastingDistance,3.00000
;   useWiping,1
;   wipingDistance,1.00000
;   speedMaxFlowRate,900.00000
;   toolheadOffsetX,0.00000
;   toolheadOffsetY,0.00000
;   filamentDiameter,1.75000
;   filamentPricePerKilogram,30.00000
;   filamentDensity,1.25000
;   primaryExtruder,Left Extruder
;   layerHeight,0.60000
;   topSolidLayers,6
;   bottomSolidLayers,4
;   outlinePerimeters,2
;   useVaseMode,0
;   useAdaptiveLayerHeights,0
;   minAdaptiveLayerHeight,0.10000
;   maxAdaptiveLayerHeight,0.30000
;   adaptiveSmoothingLevel,5
;   horizontalOuterCompensation,0.00000
;   horizontalInnerCompensation,0.00000
;   firstLayerUnits,percentage
;   firstLayerHeightPercentage,100
;   firstLayerWidthPercentage,100
;   firstLayerSpeedPercentage,70
;   firstLayerHeightAbsolute,0.30000
;   firstLayerWidthAbsolute,0.40000
;   firstLayerSpeedAbsolute,900.00000
;   startPointStrategy,closest
;   alignStartPointsX,0.00000
;   alignStartPointsY,653.00000
;   restrictStartPoints,0
;   perimeterPrintingOrder,inside_out
;   islandPrintingOrder,closest
;   printInfillBeforePerimeters,0
;   useSkirt,1
;   skirtExtruder,Left Extruder
;   skirtLayers,1
;   skirtOffset,10.00000
;   skirtOutlines,1
;   useRaft,0
;   raftExtruder,Left Extruder
;   raftBaseLayers,2
;   raftTopLayers,3
;   raftOffset,3.00000
;   raftSeparationDistance,0.14000
;   raftSpeedUnits,percentage
;   raftSpeedPercentage,30
;   raftSpeedAbsolute,600.00000
;   usePrimePillar,0
;   primePillarExtruder,All Extruders
;   primePillarWidth,12.00000
;   primePillarLocation,north_west
;   primePillarSpeedPercentage,200
;   primePillarInfillPercentage,100
;   autoStopPrimePillar,1
;   primePillarLayersAfterAutoStop,0
;   useOozeShield,0
;   oozeShieldExtruder,All Extruders
;   oozeShieldOffset,2.00000
;   oozeShieldOutlines,1
;   oozeShieldSidewallShape,waterfall
;   oozeShieldSidewallAngle,30
;   oozeShieldSpeedPercentage,100
;   autoStopOozeShield,1
;   oozeShieldLayersAfterAutoStop,0
;   sparseInfillExtruder,Left Extruder
;   sparseInfillPattern,full_honeycomb
;   sparseInfillRotation,90
;   sparseInfillPercentage,25
;   sparseInfillExtrusionWidthPercentage,111
;   sparseInfillCombinedLayers,1
;   denseInfillLayers,0
;   denseInfillPercentage,15
;   infillOutlineOverlapPercentage,10
;   minInfillLength,10.00000
;   externalInfillPattern,rectilinear
;   externalInfillRotation,0
;   solidInfillThresholdArea,25.00000
;   solidInfillExtraExpansion,0.00000
;   useMonotonic,0
;   useDiaphragm,0
;   diaphragmSolidLayers,3
;   diaphragmSpacingLayers,20
;   topLayerExtraExpansion,1.00000
;   topLayerExtrusionModifier,100
;   overrideFanSpeedForTopLayer,0
;   topLayerFanSpeedPercentage,100
;   useIroning,0
;   ironingOutlineOffsetPercentage,50
;   ironingExtrusionWidthPercentage,25
;   ironingExtrusionModifier,15
;   ironingSpeedModifier,30
;   sparseSupportExtruder,Left Extruder
;   sparseSupportInfillPattern,rectilinear
;   sparseSupportInfillRotation,0
;   sparseSupportInfillPercentage,25
;   sparseSupportOutlines,0
;   sparseSupportCombinedLayers,1
;   upperDenseSupportLayers,3
;   lowerDenseSupportLayers,0
;   denseSupportExtruder,Left Extruder
;   denseSupportInfillPercentage,50
;   denseSupportExtraExpansion,0.00000
;   baseSupportLayers,1
;   supportInflationDistance,3.00000
;   supportHorizontalPartOffset,0.60000
;   supportUpperSeparationLayers,1
;   supportLowerSeparationLayers,1
;   temperatureController,Left Extruder Temperature
;   enableTemperatureController,1
;   temperatureNumber,0
;   temperatureType,extruder
;   stabilizeAtStartup,1
;   temperatureSetpoints,1|220
;   useIdleCooldown,0
;   cooldownTemperature,150
;   cooldownRequiredIdleTime,180
;   cooldownReheatTime,60
;   temperatureController,Right Extruder Temperature
;   enableTemperatureController,1
;   temperatureNumber,1
;   temperatureType,extruder
;   stabilizeAtStartup,1
;   temperatureSetpoints,1|220
;   useIdleCooldown,0
;   cooldownTemperature,150
;   cooldownRequiredIdleTime,180
;   cooldownReheatTime,60
;   temperatureController,Heated Bed
;   enableTemperatureController,1
;   temperatureNumber,2
;   temperatureType,platform
;   stabilizeAtStartup,1
;   temperatureSetpoints,1|60
;   useIdleCooldown,0
;   cooldownTemperature,150
;   cooldownRequiredIdleTime,180
;   cooldownReheatTime,60
;   fan,Cooling Fan
;   fanNumber,0
;   fanType,extruder
;   blipFanToFullPower,0
;   fanSetpoints,1|0,2|100
;   increaseFanForQuickLayers,0
;   fanMaxQuickLayerTime,45.00000
;   fanMinQuickLayerTime,15.00000
;   maxQuickLayerFanSpeedPercentage,100
;   defaultPrintSpeed,5200.00000
;   outerPerimeterSpeedPercentage,50
;   innerPerimeterSpeedPercentage,100
;   topLayerSpeedPercentage,50
;   solidInfillSpeedPercentage,70
;   sparseSupportSpeedPercentage,90
;   denseSupportSpeedPercentage,70
;   travelSpeedXY,9000.00000
;   travelSpeedZ,1998.00000
;   reduceSpeedForQuickLayers,1
;   speedMaxQuickLayerTime,15.00000
;   minQuickLayerSpeedPercentage,20
;   reduceSpeedForShortPerimeters,1
;   speedMaxShortPerimeterLength,80.00000
;   minShortPerimeterSpeedPercentage,50
;   reduceSpeedForMaxFlowRate,0
;   accelXY,1000.00000
;   accelZ,150.00000
;   accelE,3000.00000
;   jerkXY,600.00000
;   jerkZ,24.00000
;   jerkE,300.00000
;   exportFileFormat,gcode
;   useStickyCommands,1
;   use5D,1
;   relativeExtrusionDistances,0
;   allowExtruderAxisZeroing,1
;   independentExtruderAxes,0
;   includeM10123,0
;   includeThumbnailImages,0
;   thumbnailImageEncoding,standard
;   thumbnailImageSizes,300|300
;   x3gMachineProfile,r2
;   overrideStepsPerMillimeter,0
;   stepsPerMillimeterX,88.57319
;   stepsPerMillimeterY,88.57319
;   stepsPerMillimeterZ,400.00000
;   stepsPerMillimeterA,96.27520
;   stepsPerMillimeterB,96.27520
;   xyzFileFormatVersion,1
;   makerBotMachineProfile,replicator_5
;   makerBotModelExtruder,mk13
;   makerBotSupportExtruder,mk14_s
;   makerBotModelMaterial,pla
;   makerBotSupportMaterial,pva
;   globalOffsetX,0.00000
;   globalOffsetY,0.00000
;   globalOffsetZ,0.00000
;   applyToolheadOffsets,0
;   buildVolumeShape,rectangular
;   buildVolumeX,700.00000
;   buildVolumeY,700.00000
;   buildVolumeZ,1820.00000
;   buildVolumeDiameter,200.00000
;   originOffsetX,0.00000
;   originOffsetY,0.00000
;   originOffsetZ,0.00000
;   homingDirectionX,min
;   homingDirectionY,min
;   homingDirectionZ,min
;   mirrorVisualX,0
;   mirrorVisualY,1
;   mirrorVisualZ,0
;   machineBackgroundModel,
;   startingScript,G28 ; home all axes|M204 S1500 ; default acceleration|M205 X15.00 ; maximum X Y jerk
;   preLayerChangeScript,
;   postLayerChangeScript,
;   preRetractionScript,
;   postRetractionScript,
;   preToolChangeScript,
;   postToolChangeScript,
;   processChangeScript,
;   endingScript,M104 T0 S0 ; left extruder heater off|M104 T1 S0 ; right extruder heater off|M140 S0 ; heated bed heater off (if you have it)|G28 X0 Y0 ; move X/Y to min endstops|M84 ; steppers off|M107 ; Fan off|G90 ; absolute positioning
;   postProcessingScript,
;   useBridging,1
;   bridgingThresholdArea,5.00000
;   bridgingInfillExtraExpansion,0.00000
;   bridgingExtrusionModifier,80
;   bridgingSpeedModifier,130
;   overrideFanSpeedForBridging,0
;   bridgingFanSpeedPercentage,50
;   useFixedBridgingAngle,0
;   fixedBridgingAngle,0
;   applyBridgingToPerimeters,0
;   bridgingPerimeterExtraOverlap,0.00000
;   minBridgingPerimeterLength,10.00000
;   useToolChangeRetraction,1
;   toolChangeRetractDistance,1.00000
;   toolChangeExtraRestartDistance,0.00000
;   toolChangeRetractSpeed,900.00000
;   toolChangePrimeOnFirstUse,0
;   toolChangeRetractAtEnd,0
;   externalThinWallType,perimeters_only
;   internalThinWallType,gap_fill
;   thinWallAllowedOverlapPercentage,15
;   singleExtrusionMinLength,1.00000
;   singleExtrusionMinWidthPercentage,50
;   singleExtrusionMaxWidthPercentage,200
;   singleExtrusionEndpointExtensionDistance,0.20000
;   onlyRetractWhenCrossingOutlines,1
;   retractBetweenLayers,1
;   retractOnTopLayers,0
;   useRetractionMinTravel,0
;   retractionMinTravel,3.00000
;   useRetractionMinExtrusion,0
;   retractionMinExtrusion,3.00000
;   onlyVerticalLiftOnTopLayers,0
;   retractWhileWiping,0
;   wipingMode,outer_perimeter
;   avoidCrossingOutlines,1
;   maxMovementDetourFactor,3.00000
;   openLoopSlicingBehavior,heal
;   openLoopThickenWidth,0.50000
;   slicingRegionRepairMode,positive
G90
M82
M106 S0 P0
M140 S60
M190 S60
M104 S220 T0
M104 S220 T1
M109 S220 T0
M109 S220 T1
G28 ; home all axes
M204 S1500 ; default acceleration
M205 X15.00 ; maximum X Y jerk
; process ball
; layer 1, Z = 0.6000
T0
G92 E0.00000
G1 E-3.00000 F900
; feature skirt
; tool H0.6000 W0.960
G1 Z0.6000 F1998
G1 X376.696 Y109.177 F9000
G92 E0.00000
G1 E4.00000 F900
G92 E0.00000
G1 X381.696 Y104.177 E1.77800 F3640
G1 X381.696 Y103.177 E2.02944
G1 X395.835 Y89.038 E7.05727
G1 X404.835 Y89.038 E9.32029
G1 X407.835 Y86.038 E10.38709
G1 X427.957 Y86.038 E15.44668
G1 X434.096 Y92.177 E17.62972
G1 X434.096 Y101.177 E19.89274
G1 X437.957 Y105.038 E21.26569
G1 X442.957 Y105.038 E22.52292
G1 X450.096 Y112.177 E25.06156
G1 X450.096 Y113.177 E25.31301
G1 X451.096 Y114.177 E25.66861
G1 X451.096 Y141.299 E32.48833
G1 X450.096 Y142.299 E32.84393
G1 X450.096 Y144.299 E33.34682
G1 X442.957 Y151.438 E35.88546
G1 X438.957 Y151.438 E36.89124
G1 X434.957 Y155.438 E38.31364
G1 X433.957 Y155.438 E38.56509
G1 X431.957 Y157.438 E39.27628
G1 X431.096 Y157.438 E39.49277
G1 X431.096 Y163.299 E40.96649
G1 X424.957 Y169.438 E43.14953
G1 X406.835 Y169.438 E47.70622
G1 X403.835 Y166.438 E48.77302
G1 X394.835 Y166.438 E51.03604
G1 X385.696 Y157.299 E54.28587
G1 X385.696 Y156.299 E54.53732
G1 X379.696 Y150.299 E56.67092
G1 X379.696 Y149.299 E56.92236
G1 X378.696 Y148.299 E57.27796
G1 X378.696 Y147.299 E57.52941
G1 X376.696 Y145.299 E58.24061
G1 X376.696 Y144.299 E58.49205
G1 X375.696 Y143.299 E58.84765
G1 X375.696 Y140.299 E59.60199
G1 X374.696 Y139.299 E59.95759
G1 X374.696 Y118.177 E65.26863
G1 X375.696 Y117.177 E65.62423
G1 X375.696 Y115.177 E66.12712
G1 X376.696 Y114.177 E66.48272
G1 X376.696 Y109.177 E67.73996
G92 E0.00000
G1 E-3.00000 F900
; feature inner perimeter
G1 X401.322 Y123.987 F9000
G1 X401.567 Y123.748
G1 X401.807 Y123.329
G1 X402.643 Y123.800
G92 E0.00000
G1 E4.00000 F900
G92 E0.00000
G1 X403.028 Y123.128 E0.19485 F2188
G1 X403.178 Y122.989 E0.24616
G1 X403.278 Y122.829 E0.29366
G1 X404.078 Y122.118 E0.56282
G1 X404.308 Y121.846 E0.65236
G1 X404.586 Y121.689 E0.73282
G1 X405.402 Y121.364 E0.95357
G1 X406.092 Y120.737 E1.18800
G1 X406.186 Y120.678 E1.21591
G1 X407.172 Y120.325 E1.47936
G1 X407.661 Y120.243 E1.60383
G1 X408.729 Y120.169 E1.87323
G1 X409.332 Y120.080 E2.02635
G1 X409.985 Y120.120 E2.19095
G1 X410.691 Y120.189 E2.36925
G1 X411.234 Y120.399 E2.51563
G1 X412.629 Y120.975 E2.89514
G1 X411.639 Y121.707 E3.20460
G1 X411.453 Y121.816 E3.25895
G1 X410.179 Y122.672 E3.64485
G1 X409.851 Y122.860 E3.73985
G1 X409.366 Y123.189 E3.88715
G1 X408.243 Y124.303 E4.28494
G1 X407.397 Y125.622 E4.67910
G1 X406.857 Y127.083 E5.07076
G1 X406.670 Y128.419 E5.40976
G1 X406.642 Y128.656 E5.46991
G1 X406.766 Y130.216 E5.86340
G1 X407.228 Y131.734 E6.26225
G1 X407.993 Y133.133 E6.66330
G1 X408.676 Y133.868 E6.91556
G1 X409.017 Y134.293 E7.05258
G1 X410.264 Y135.395 E7.47101
G1 X408.518 Y135.411 E7.90999
G1 X408.398 Y135.377 E7.94140
G1 X407.306 Y135.140 E8.22238
G1 X406.330 Y134.787 E8.48334
G1 X406.016 Y134.749 E8.56294
G1 X405.648 Y134.499 E8.67467
G1 X405.030 Y134.217 E8.84550
G1 X404.684 Y133.826 E8.97679
G1 X404.452 Y133.758 E9.03757
G1 X403.983 Y133.149 E9.23101
G1 X403.164 Y132.533 E9.48851
G1 X402.839 Y131.986 E9.64846
G1 X403.415 Y131.472 E9.84253
G1 X403.809 Y131.056 E9.98654
G1 X404.253 Y130.488 E10.16786
G1 X404.470 Y130.100 E10.27978
G1 X404.699 Y129.610 E10.41575
G1 X404.919 Y128.833 E10.61875
G1 X404.995 Y127.973 E10.83587
G1 X404.914 Y127.118 E11.05190
G1 X404.691 Y126.317 E11.26094
G1 X404.565 Y126.050 E11.33508
G1 X404.354 Y125.603 F2188
G1 X404.089 Y125.196
G1 X403.706 Y124.716
G1 X403.169 Y124.197
G1 X402.643 Y123.800
; feature outer perimeter
G1 X401.567 Y123.748 F9000
G92 E0.00000
G1 X402.269 Y122.522 E0.35527 F1277
G1 X402.432 Y122.372 E0.41110
G1 X402.536 Y122.204 E0.46080
G1 X403.389 Y121.446 E0.74748
G1 X403.685 Y121.094 E0.86322
G1 X404.172 Y120.821 E1.00362
G1 X404.885 Y120.537 E1.19674
G1 X405.508 Y119.971 E1.40833
G1 X405.762 Y119.810 E1.48399
G1 X406.930 Y119.392 E1.79570
G1 X407.548 Y119.289 E1.95334
G1 X408.626 Y119.214 E2.22497
G1 X409.291 Y119.115 E2.39405
G1 X410.062 Y119.163 E2.58834
G1 X410.915 Y119.246 E2.80375
G1 X411.590 Y119.507 E2.98584
G1 X412.638 Y119.940 E3.27107
G1 X413.826 Y120.685 E3.62347
G1 X413.913 Y120.820 E3.66396
G1 X413.901 Y120.856 E3.67343
G1 X413.815 Y121.098 E3.73805
G1 X413.229 Y121.725 E3.95390
G1 X412.169 Y122.509 E4.28538
G1 X411.964 Y122.629 E4.34515
G1 X410.686 Y123.488 E4.73225
G1 X410.360 Y123.675 E4.82672
G1 X409.979 Y123.933 E4.94248
G1 X408.994 Y124.910 E5.29127
G1 X408.261 Y126.053 E5.63268
G1 X407.793 Y127.319 E5.97209
G1 X407.622 Y128.541 E6.28234
G1 X407.606 Y128.674 E6.31597
G1 X407.715 Y130.036 E6.65962
G1 X408.117 Y131.360 E7.00747
G1 X408.778 Y132.567 E7.35357
G1 X409.402 Y133.240 E7.58426
G1 X409.714 Y133.627 E7.70943
G1 X410.611 Y134.421 E8.01056
G1 X411.451 Y135.131 E8.28714
G1 X411.826 Y135.648 E8.44763
G1 X411.844 Y135.833 E8.49426
G1 X411.684 Y135.987 E8.55014
G1 X411.452 Y136.094 E8.61430
G1 X410.716 Y136.291 E8.80587
G1 X409.562 Y136.362 E9.09669
G1 X408.391 Y136.372 E9.39120
G1 X408.166 Y136.309 E9.44980
G1 X407.039 Y136.064 E9.73976
G1 X406.107 Y135.727 E9.98919
G1 X405.670 Y135.674 E10.09982
G1 X405.176 Y135.339 E10.24986
G1 X404.446 Y135.006 E10.45158
G1 X404.148 Y134.670 E10.56454
G1 X403.882 Y134.591 E10.63444
G1 X403.301 Y133.837 E10.87370
G1 X402.436 Y133.186 E11.14597
G1 X401.654 Y131.872 E11.53056
G1 X401.545 Y131.800 E11.56338
G1 X401.618 Y131.729 E11.58888
G1 X402.337 Y131.147 E11.82150
G1 X402.746 Y130.783 E11.95906
G1 X403.080 Y130.429 E12.08156
G1 X403.451 Y129.955 E12.23289
G1 X403.615 Y129.662 E12.31732
G1 X403.796 Y129.274 E12.42514
G1 X403.971 Y128.658 E12.58593
G1 X404.031 Y127.976 E12.75818
G1 X403.967 Y127.293 E12.93058
G1 X403.788 Y126.653 E13.09775
G1 X403.514 Y126.072 E13.25935
G1 X403.310 Y125.759 E13.35314
G1 X403.299 Y125.744 E13.35790
G1 X402.994 Y125.364 F1277
G1 X402.544 Y124.928
G1 X401.406 Y124.070
G1 X401.322 Y123.987
G1 X401.567 Y123.748
G1 X402.063 Y122.880 F1277
; feature solid layer
G1 X405.884 Y127.799 F9000
G92 E0.00000
G1 X405.843 Y127.758 E0.01466 F2548
G1 X405.767 Y126.960 E0.21636
G1 X405.521 Y126.079 E0.44625
G1 X406.095 Y126.653 E0.65022
G1 X406.461 Y125.661 E0.91594
G1 X404.076 Y123.276 E1.76422
G1 X404.699 Y122.722 E1.97374
G1 X404.782 Y122.624 E2.00610
G1 X406.921 Y124.764 E2.76693
G1 X407.452 Y123.937 E3.01401
