; G-Code generated by Simplify3D(R) Version 5.1.2
; Oct 17, 2023 at 10:39:19 PM
; Settings Summary
;   processName,ball
;   autoConfigureMaterial,PLA
;   autoConfigureQuality,0.8 mm
;   autoConfigureExtruders,Left Extruder Only
;   targetModels,ball1a
;   profileName,AngelaSu Ball
;   profileVersion,2023-10-13 17:18:40
;   app,S3D-Software 5.1.2
;   technology,fff
;   baseProfile,Builder Extreme 2000
;   extruder,Left Extruder
;   toolheadNumber,0
;   nozzleDiameter,0.80000
;   extrusionMultiplier,1.05000
;   extrusionWidthMode,automatic
;   extrusionWidth,0.96000
;   useRetraction,1
;   retractDistance,3.00000
;   extraRestartDistance,1.00000
;   retractVerticalLift,0.00000
;   retractSpeed,900.00000
;   useCoasting,1
;   coastingDistance,3.00000
;   useWiping,1
;   wipingDistance,1.00000
;   speedMaxFlowRate,900.00000
;   toolheadOffsetX,0.00000
;   toolheadOffsetY,0.00000
;   filamentDiameter,1.75000
;   filamentPricePerKilogram,30.00000
;   filamentDensity,1.25000
;   primaryExtruder,Left Extruder
;   layerHeight,0.40000
;   topSolidLayers,6
;   bottomSolidLayers,4
;   outlinePerimeters,2
;   useVaseMode,0
;   useAdaptiveLayerHeights,0
;   minAdaptiveLayerHeight,0.10000
;   maxAdaptiveLayerHeight,0.30000
;   adaptiveSmoothingLevel,5
;   horizontalOuterCompensation,0.00000
;   horizontalInnerCompensation,0.00000
;   firstLayerUnits,percentage
;   firstLayerHeightPercentage,75
;   firstLayerWidthPercentage,112
;   firstLayerSpeedPercentage,70
;   firstLayerHeightAbsolute,0.30000
;   firstLayerWidthAbsolute,0.40000
;   firstLayerSpeedAbsolute,900.00000
;   startPointStrategy,closest
;   alignStartPointsX,0.00000
;   alignStartPointsY,653.00000
;   restrictStartPoints,0
;   perimeterPrintingOrder,inside_out
;   islandPrintingOrder,closest
;   printInfillBeforePerimeters,0
;   useSkirt,1
;   skirtExtruder,Left Extruder
;   skirtLayers,1
;   skirtOffset,10.00000
;   skirtOutlines,1
;   useRaft,0
;   raftExtruder,Left Extruder
;   raftBaseLayers,2
;   raftTopLayers,3
;   raftOffset,3.00000
;   raftSeparationDistance,0.14000
;   raftSpeedUnits,percentage
;   raftSpeedPercentage,30
;   raftSpeedAbsolute,600.00000
;   usePrimePillar,0
;   primePillarExtruder,All Extruders
;   primePillarWidth,12.00000
;   primePillarLocation,north_west
;   primePillarSpeedPercentage,200
;   primePillarInfillPercentage,100
;   autoStopPrimePillar,1
;   primePillarLayersAfterAutoStop,0
;   useOozeShield,0
;   oozeShieldExtruder,All Extruders
;   oozeShieldOffset,2.00000
;   oozeShieldOutlines,1
;   oozeShieldSidewallShape,waterfall
;   oozeShieldSidewallAngle,30
;   oozeShieldSpeedPercentage,100
;   autoStopOozeShield,1
;   oozeShieldLayersAfterAutoStop,0
;   sparseInfillExtruder,Left Extruder
;   sparseInfillPattern,full_honeycomb
;   sparseInfillRotation,90
;   sparseInfillPercentage,25
;   sparseInfillExtrusionWidthPercentage,111
;   sparseInfillCombinedLayers,1
;   denseInfillLayers,0
;   denseInfillPercentage,15
;   infillOutlineOverlapPercentage,10
;   minInfillLength,10.00000
;   externalInfillPattern,rectilinear
;   externalInfillRotation,0
;   solidInfillThresholdArea,25.00000
;   solidInfillExtraExpansion,0.00000
;   useMonotonic,0
;   useDiaphragm,0
;   diaphragmSolidLayers,3
;   diaphragmSpacingLayers,20
;   topLayerExtraExpansion,1.00000
;   topLayerExtrusionModifier,100
;   overrideFanSpeedForTopLayer,0
;   topLayerFanSpeedPercentage,100
;   useIroning,0
;   ironingOutlineOffsetPercentage,50
;   ironingExtrusionWidthPercentage,25
;   ironingExtrusionModifier,15
;   ironingSpeedModifier,30
;   sparseSupportExtruder,Left Extruder
;   sparseSupportInfillPattern,rectilinear
;   sparseSupportInfillRotation,0
;   sparseSupportInfillPercentage,25
;   sparseSupportOutlines,0
;   sparseSupportCombinedLayers,1
;   upperDenseSupportLayers,0
;   lowerDenseSupportLayers,0
;   denseSupportExtruder,Left Extruder
;   denseSupportInfillPercentage,25
;   denseSupportExtraExpansion,0.00000
;   baseSupportLayers,1
;   supportInflationDistance,2.00000
;   supportHorizontalPartOffset,0.60000
;   supportUpperSeparationLayers,1
;   supportLowerSeparationLayers,1
;   temperatureController,Left Extruder Temperature
;   enableTemperatureController,1
;   temperatureNumber,0
;   temperatureType,extruder
;   stabilizeAtStartup,1
;   temperatureSetpoints,1|220
;   useIdleCooldown,0
;   cooldownTemperature,150
;   cooldownRequiredIdleTime,180
;   cooldownReheatTime,60
;   temperatureController,Right Extruder Temperature
;   enableTemperatureController,1
;   temperatureNumber,1
;   temperatureType,extruder
;   stabilizeAtStartup,1
;   temperatureSetpoints,1|220
;   useIdleCooldown,0
;   cooldownTemperature,150
;   cooldownRequiredIdleTime,180
;   cooldownReheatTime,60
;   temperatureController,Heated Bed
;   enableTemperatureController,1
;   temperatureNumber,2
;   temperatureType,platform
;   stabilizeAtStartup,1
;   temperatureSetpoints,1|60
;   useIdleCooldown,0
;   cooldownTemperature,150
;   cooldownRequiredIdleTime,180
;   cooldownReheatTime,60
;   fan,Cooling Fan
;   fanNumber,0
;   fanType,extruder
;   blipFanToFullPower,0
;   fanSetpoints,1|0,2|100
;   increaseFanForQuickLayers,0
;   fanMaxQuickLayerTime,45.00000
;   fanMinQuickLayerTime,15.00000
;   maxQuickLayerFanSpeedPercentage,100
;   defaultPrintSpeed,5200.00000
;   outerPerimeterSpeedPercentage,50
;   innerPerimeterSpeedPercentage,100
;   topLayerSpeedPercentage,50
;   solidInfillSpeedPercentage,70
;   sparseSupportSpeedPercentage,90
;   denseSupportSpeedPercentage,70
;   travelSpeedXY,9000.00000
;   travelSpeedZ,1998.00000
;   reduceSpeedForQuickLayers,1
;   speedMaxQuickLayerTime,15.00000
;   minQuickLayerSpeedPercentage,20
;   reduceSpeedForShortPerimeters,1
;   speedMaxShortPerimeterLength,80.00000
;   minShortPerimeterSpeedPercentage,50
;   reduceSpeedForMaxFlowRate,0
;   accelXY,1000.00000
;   accelZ,150.00000
;   accelE,3000.00000
;   jerkXY,600.00000
;   jerkZ,24.00000
;   jerkE,300.00000
;   exportFileFormat,gcode
;   useStickyCommands,1
;   use5D,1
;   relativeExtrusionDistances,0
;   allowExtruderAxisZeroing,1
;   independentExtruderAxes,0
;   includeM10123,0
;   includeThumbnailImages,0
;   thumbnailImageEncoding,standard
;   thumbnailImageSizes,300|300
;   x3gMachineProfile,r2
;   overrideStepsPerMillimeter,0
;   stepsPerMillimeterX,88.57319
;   stepsPerMillimeterY,88.57319
;   stepsPerMillimeterZ,400.00000
;   stepsPerMillimeterA,96.27520
;   stepsPerMillimeterB,96.27520
;   xyzFileFormatVersion,1
;   makerBotMachineProfile,replicator_5
;   makerBotModelExtruder,mk13
;   makerBotSupportExtruder,mk14_s
;   makerBotModelMaterial,pla
;   makerBotSupportMaterial,pva
;   globalOffsetX,0.00000
;   globalOffsetY,0.00000
;   globalOffsetZ,0.00000
;   applyToolheadOffsets,0
;   buildVolumeShape,rectangular
;   buildVolumeX,700.00000
;   buildVolumeY,700.00000
;   buildVolumeZ,1820.00000
;   buildVolumeDiameter,200.00000
;   originOffsetX,0.00000
;   originOffsetY,0.00000
;   originOffsetZ,0.00000
;   homingDirectionX,min
;   homingDirectionY,min
;   homingDirectionZ,min
;   mirrorVisualX,0
;   mirrorVisualY,1
;   mirrorVisualZ,0
;   machineBackgroundModel,
;   startingScript,G28 ; home all axes|M204 S1500 ; default acceleration|M205 X15.00 ; maximum X Y jerk
;   preLayerChangeScript,
;   postLayerChangeScript,
;   preRetractionScript,
;   postRetractionScript,
;   preToolChangeScript,
;   postToolChangeScript,
;   processChangeScript,
;   endingScript,M104 T0 S0 ; left extruder heater off|M104 T1 S0 ; right extruder heater off|M140 S0 ; heated bed heater off (if you have it)|G28 X0 Y0 ; move X/Y to min endstops|M84 ; steppers off|M107 ; Fan off|G90 ; absolute positioning
;   postProcessingScript,
;   useBridging,1
;   bridgingThresholdArea,5.00000
;   bridgingInfillExtraExpansion,0.00000
;   bridgingExtrusionModifier,80
;   bridgingSpeedModifier,130
;   overrideFanSpeedForBridging,0
;   bridgingFanSpeedPercentage,50
;   useFixedBridgingAngle,0
;   fixedBridgingAngle,0
;   applyBridgingToPerimeters,0
;   bridgingPerimeterExtraOverlap,0.00000
;   minBridgingPerimeterLength,10.00000
;   useToolChangeRetraction,1
;   toolChangeRetractDistance,1.00000
;   toolChangeExtraRestartDistance,0.00000
;   toolChangeRetractSpeed,900.00000
;   toolChangePrimeOnFirstUse,0
;   toolChangeRetractAtEnd,0
;   externalThinWallType,perimeters_only
;   internalThinWallType,gap_fill
;   thinWallAllowedOverlapPercentage,15
;   singleExtrusionMinLength,1.00000
;   singleExtrusionMinWidthPercentage,50
;   singleExtrusionMaxWidthPercentage,200
;   singleExtrusionEndpointExtensionDistance,0.20000
;   onlyRetractWhenCrossingOutlines,1
;   retractBetweenLayers,1
;   retractOnTopLayers,0
;   useRetractionMinTravel,0
;   retractionMinTravel,3.00000
;   useRetractionMinExtrusion,0
;   retractionMinExtrusion,3.00000
;   onlyVerticalLiftOnTopLayers,0
;   retractWhileWiping,0
;   wipingMode,outer_perimeter
;   avoidCrossingOutlines,1
;   maxMovementDetourFactor,3.00000
;   openLoopSlicingBehavior,heal
;   openLoopThickenWidth,0.50000
;   slicingRegionRepairMode,positive
G90
M82
M106 S0 P0
M140 S60
M190 S60
M104 S220 T0
M104 S220 T1
M109 S220 T0
M109 S220 T1
G28 ; home all axes
M204 S1500 ; default acceleration
M205 X15.00 ; maximum X Y jerk
; process ball
; layer 1, Z = 0.3000
T0
G92 E0.00000
G1 E-3.00000 F900
; feature skirt
; tool H0.3000 W1.075
G1 Z0.3000 F1998
G1 X299.983 Y87.921 F9000
G92 E0.00000
G1 E4.00000 F900
G92 E0.00000
G1 X303.983 Y83.921 E0.79654 F3640
G1 X303.983 Y79.921 E1.35978
G1 X318.156 Y65.748 E4.18208
G1 X326.156 Y65.748 E5.30856
G1 X334.156 Y57.748 E6.90165
G1 X351.325 Y57.748 E9.31931
G1 X357.498 Y63.921 E10.54853
G1 X357.498 Y73.748 E11.93231
G1 X359.325 Y73.748 E12.18960
G1 X363.325 Y77.748 E12.98614
G1 X367.325 Y77.748 E13.54938
G1 X373.498 Y83.921 E14.77860
G1 X373.498 Y117.090 E19.44922
G1 X367.325 Y123.263 E20.67844
G1 X363.325 Y123.263 E21.24168
G1 X355.325 Y131.263 E22.83476
G1 X353.498 Y131.263 E23.09206
G1 X353.498 Y133.090 E23.34935
G1 X347.325 Y139.263 E24.57857
G1 X330.156 Y139.263 E26.99623
G1 X322.442 Y131.549 E28.53231
G1 X318.042 Y131.549 E29.15184
G1 X317.756 Y131.263 E29.20884
G1 X314.156 Y131.263 E29.71580
G1 X299.983 Y117.090 E32.53810
G1 X299.983 Y87.921 E36.64548
G92 E0.00000
G1 E-3.00000 F900
; feature inner perimeter
G1 X326.748 Y96.890 F9000
G1 X326.780 Y96.860
G1 X327.062 Y96.367
G1 X328.113 Y96.695
G92 E0.00000
G1 E4.00000 F900
G92 E0.00000
G1 X328.454 Y96.099 E0.09664 F1835
G1 X329.371 Y95.277 E0.27009
G1 X329.450 Y95.185 E0.28720
G1 X329.860 Y94.953 E0.35352
G1 X330.534 Y94.685 E0.45566
G1 X331.275 Y94.012 E0.59665
G1 X332.067 Y93.726 E0.71524
G1 X332.725 Y93.616 E0.80915
G1 X333.430 Y93.567 E0.90861
G1 X334.164 Y93.458 E1.01307
G1 X334.966 Y93.508 E1.12623
G1 X335.183 Y93.529 E1.15702
G1 X336.499 Y94.038 E1.35568
G1 X335.685 Y94.647 E1.49887
G1 X334.065 Y95.747 E1.77463
G1 X332.886 Y96.917 E2.00847
G1 X332.003 Y98.301 E2.23964
G1 X331.450 Y99.826 E2.46801
G1 X331.318 Y100.771 E2.60233
G1 X331.235 Y101.483 E2.70326
G1 X331.371 Y103.081 E2.92912
G1 X331.848 Y104.637 E3.15831
G1 X332.627 Y106.073 E3.38833
G1 X332.949 Y106.420 E3.45512
G1 X333.249 Y106.792 E3.52234
G1 X332.909 Y107.342 E3.61338
G1 X332.349 Y107.220 E3.69410
G1 X331.528 Y106.923 E3.81703
G1 X330.973 Y106.857 E3.89572
G1 X330.881 Y106.794 E3.91136
G1 X330.640 Y106.684 E3.94864
G1 X330.045 Y106.013 E4.07498
G1 X329.570 Y105.873 E4.14467
G1 X329.315 Y105.541 E4.20373
G1 X328.196 Y104.699 E4.40087
G1 X328.802 Y104.002 E4.53101
G1 X329.283 Y103.348 E4.64525
G1 X329.600 Y102.730 E4.74311
G1 X329.793 Y102.220 E4.81988
G1 X329.928 Y101.673 E4.89913
G1 X330.009 Y100.965 E4.99945
G1 X329.974 Y100.149 E5.11454
G1 X329.845 Y99.467 E5.21232
G1 X329.745 Y99.172 E5.25612
G1 X329.609 Y98.771 F1835
G1 X329.331 Y98.217
G1 X329.066 Y97.785
G1 X328.696 Y97.303
G1 X328.113 Y96.695
; feature outer perimeter
G1 X327.457 Y97.564 F9000
G92 E0.00000
G1 X326.903 Y97.064 E0.10514 F1170
G1 X326.748 Y96.890 E0.13786
G1 X326.780 Y96.860 E0.14406
G1 X327.607 Y95.415 E0.37854
G1 X328.598 Y94.527 E0.56582
G1 X328.753 Y94.343 E0.59969
G1 X329.396 Y93.981 E0.70360
G1 X329.955 Y93.758 E0.78841
G1 X330.668 Y93.111 E0.92401
G1 X330.752 Y93.058 E0.93799
G1 X331.794 Y92.682 E1.09398
G1 X332.599 Y92.547 E1.20889
G1 X333.314 Y92.497 E1.30977
G1 X334.118 Y92.378 E1.42422
G1 X335.051 Y92.436 E1.55596
G1 X335.434 Y92.474 E1.61006
G1 X336.382 Y92.840 E1.75321
G1 X337.174 Y93.167 E1.87390
G1 X338.045 Y93.714 E2.01868
G1 X338.110 Y93.814 E2.03556
G1 X338.026 Y94.054 E2.07136
G1 X337.450 Y94.669 E2.19000
G1 X336.309 Y95.523 E2.39066
G1 X334.751 Y96.580 E2.65576
G1 X333.729 Y97.596 E2.85875
G1 X332.973 Y98.780 E3.05641
G1 X332.499 Y100.087 E3.25219
G1 X332.384 Y100.907 E3.36888
G1 X332.315 Y101.499 E3.45281
G1 X332.432 Y102.875 E3.64724
G1 X332.845 Y104.219 E3.84513
G1 X333.507 Y105.441 E4.04089
G1 X333.763 Y105.717 E4.09386
G1 X334.448 Y106.567 E4.24760
G1 X334.629 Y106.724 E4.28133
G1 X335.734 Y107.821 E4.50064
G1 X336.090 Y108.247 E4.57882
G1 X336.102 Y108.369 E4.59601
G1 X336.001 Y108.467 E4.61585
G1 X334.269 Y108.573 E4.86017
G1 X333.416 Y108.581 E4.98018
G1 X332.971 Y108.456 E5.04537
G1 X332.050 Y108.256 E5.17802
G1 X331.277 Y107.976 E5.29374
G1 X330.585 Y107.893 E5.39187
G1 X330.352 Y107.735 E5.43155
G1 X329.986 Y107.568 E5.48820
G1 X329.445 Y106.957 E5.60304
G1 X328.932 Y106.806 E5.67845
G1 X328.551 Y106.312 E5.76624
G1 X327.589 Y105.588 E5.93584
G1 X327.520 Y105.494 E5.95220
G1 X326.911 Y104.454 E6.12204
G1 X326.973 Y104.381 E6.13551
G1 X327.647 Y103.692 E6.27115
G1 X327.962 Y103.329 E6.33888
G1 X328.366 Y102.781 E6.43478
G1 X328.616 Y102.293 E6.51193
G1 X328.764 Y101.900 E6.57111
G1 X328.867 Y101.483 E6.63166
G1 X328.931 Y100.927 E6.71043
G1 X328.903 Y100.272 E6.80267
G1 X328.879 Y100.142 E6.82134
G1 X328.802 Y99.741 F1170
G1 X328.615 Y99.186
G1 X328.391 Y98.740
G1 X328.179 Y98.395
G1 X327.879 Y98.005
G1 X327.457 Y97.564
G1 X326.903 Y97.064 F1170
G1 X326.748 Y96.890
G1 X326.763 Y96.876
; feature solid layer
G1 X329.580 Y96.866 F9000
G92 E0.00000
G1 X330.985 Y98.271 E0.27972 F2548
G1 X331.130 Y97.871 E0.33960
G1 X331.510 Y97.275 E0.43909
G1 X330.141 Y95.906 E0.71175
G1 X330.278 Y95.829 E0.73394
G1 X331.055 Y95.520 E0.85166
G1 X331.170 Y95.415 E0.87360
G1 X332.102 Y96.347 E1.05920
G1 X332.128 Y96.306 E1.06597
G1 X332.804 Y95.635 E1.20006
G1 X332.858 Y95.582 F2548
G1 X332.041 Y94.764
G1 X332.313 Y94.666
G1 X332.839 Y94.578
G1 X333.340 Y94.543
G1 X333.653 Y94.857
G92 E0.00000
G1 E-3.00000 F900
; feature support
G1 X334.612 Y92.409 F9000
G1 X335.051 Y92.436
G1 X335.434 Y92.474
G1 X335.635 Y89.797
G92 E0.00000
G1 E4.00000 F900
G92 E0.00000
G1 X323.068 Y77.230 E2.50253 F3276
G1 X323.068 Y78.751 E2.71664
G1 X334.004 Y89.686 E4.89428
G1 X333.512 Y89.759 E4.96427
G1 X332.618 Y89.821 E5.09046
G1 X323.068 Y80.271 E6.99217
G1 X323.068 Y80.515 E7.02644
G1 X322.955 Y80.515 E7.04238
G1 X322.955 Y80.833 E7.08719
G1 X322.109 Y80.833 E7.20628
G1 X331.272 Y89.996 E9.03097
G1 X330.150 Y90.394 E9.19868
G1 X320.589 Y80.833 E11.10261
G1 X319.068 Y80.833 E11.31672
G1 X329.148 Y90.913 E13.32393
G1 X328.994 Y91.010 E13.34948
G1 X328.599 Y91.369 E13.42465
G1 X328.230 Y91.516 E13.48060
G1 X319.068 Y82.354 E15.30509
G1 X319.068 Y83.874 E15.51919
G1 X327.221 Y92.027 E17.14276
G1 X326.641 Y92.716 E17.26961
G1 X326.508 Y92.834 E17.29467
G1 X318.506 Y84.833 E18.88804
G1 X316.986 Y84.833 E19.10215
G1 X325.747 Y93.594 E20.84686
G1 X325.623 Y93.794 E20.87990
G1 X325.232 Y94.153 E20.95470
G1 X325.070 Y94.438 E21.00080
